(.../Dokumenter/EAGLE/ulps/pcb-gcode.ulp)
(Copyright 2005 - 2012 by John Johnson)
(See readme.txt for licensing terms.)
(This file generated from the board:)
(.../projects/RangerModule/rangerBoard.brd)
(Current profile is .../pcb-gcode-3.6.2.4/profiles/grbl-NuggetMill.pp  )
(This file generated 14/12/2021 13:51)
(Settings from pcb-machine.h)
(spindle on time = 0.0000)
(  Tool Size)
(0.200000 )
(spindle speed = 30000.0000)
(tool change at 0.000000 0.000000 12.700000 )
(feed rate xy = F200   )
(feed rate z  = F144   )
(Z Axis Settings)
(  High     Up        Down     Drill)
(50.000000 	1.000000 	-0.200000 	-1.650000 )
(Settings from pcb-defaults.h)
(isolate min = 0.1500)
(isolate max = 0.5000)
(isolate step = 0.1000)
(Generated bottom outlines, bottom drill, bottom stencil)
(Unit of measure: mm)
(Metric Mode)
G21
(Absolute Coordinates)
G90
G0 Z50.000000 
G0 X0.000000 Y0.000000 
M3
G4 P0
G0 Z1.000000 
G0 X0.831172 Y0.891903 
G1 Z-0.200000 F144   
G1 X0.891903 Y0.831172 F200   
G1 X0.966287 Y0.788228 
G1 X1.049250 Y0.765997 
G1 X1.135141 Y0.765997 
G1 X39.570744 Y0.765997 
G1 X39.653706 Y0.788228 
G1 X39.728091 Y0.831172 
G1 X39.788822 Y0.891903 
G1 X39.831766 Y0.966287 
G1 X39.853997 Y1.049250 
G1 X39.853997 Y83.710744 
G1 X39.831766 Y83.793706 
G1 X39.788822 Y83.868091 
G1 X39.728091 Y83.928822 
G1 X39.653706 Y83.971766 
G1 X39.570744 Y83.993997 
G1 X1.049250 Y83.993997 
G1 X0.966287 Y83.971766 
G1 X0.891903 Y83.928822 
G1 X0.831172 Y83.868091 
G1 X0.788228 Y83.793706 
G1 X0.765997 Y83.710744 
G1 X0.765997 Y1.049250 
G1 X0.788228 Y0.966287 
G1 X0.831172 Y0.891903 
G0 Z1.000000 
G0 X5.412516 Y4.946953 
G1 Z-0.200000 F144   
G1 X4.946953 Y5.412516 F200   
G1 X4.694997 Y6.020794 
G1 X4.694997 Y6.679200 
G1 X4.946953 Y7.287478 
G1 X5.412509 Y7.753037 
G1 X5.496584 Y7.787863 
G1 X5.536091 Y7.804225 
G1 X5.573128 Y7.825609 
G1 X5.607041 Y7.851631 
G1 X5.637291 Y7.881884 
G1 X5.663306 Y7.915788 
G1 X5.684697 Y7.952834 
G1 X5.701056 Y7.992325 
G1 X5.712125 Y8.033647 
G1 X5.717706 Y8.076025 
G1 X5.717706 Y8.118797 
G1 X5.712125 Y8.161181 
G1 X5.701056 Y8.202491 
G1 X5.684694 Y8.241994 
G1 X5.663309 Y8.279031 
G1 X5.637288 Y8.312944 
G1 X5.607037 Y8.343194 
G1 X5.576837 Y8.373394 
G1 X5.437997 Y8.708584 
G1 X5.437997 Y9.071409 
G1 X5.576837 Y9.406600 
G1 X5.833394 Y9.663156 
G1 X6.168584 Y9.801997 
G1 X6.531409 Y9.801997 
G1 X6.866600 Y9.663156 
G1 X7.123159 Y9.406600 
G1 X7.261997 Y9.071409 
G1 X7.261997 Y8.708581 
G1 X7.123159 Y8.373394 
G1 X7.092956 Y8.343191 
G1 X7.062706 Y8.312944 
G1 X7.036684 Y8.279031 
G1 X7.015300 Y8.241994 
G1 X6.998938 Y8.202491 
G1 X6.987869 Y8.161184 
G1 X6.982287 Y8.118797 
G1 X6.982287 Y8.076025 
G1 X6.987869 Y8.033647 
G1 X6.998941 Y7.992325 
G1 X7.015297 Y7.952834 
G1 X7.036688 Y7.915788 
G1 X7.062703 Y7.881884 
G1 X7.092953 Y7.851631 
G1 X7.126866 Y7.825609 
G1 X7.163903 Y7.804225 
G1 X7.203409 Y7.787863 
G1 X7.287484 Y7.753037 
G1 X7.753041 Y7.287481 
G1 X8.004997 Y6.679200 
G1 X8.004997 Y6.020794 
G1 X7.753041 Y5.412516 
G1 X7.287478 Y4.946953 
G1 X6.679200 Y4.694997 
G1 X6.020794 Y4.694997 
G1 X5.412516 Y4.946953 
G0 Z1.000000 
G0 X5.647816 Y8.313731 
G1 Z-0.200000 F144   
G1 X5.773731 Y8.187816 F200   
G1 X5.921794 Y8.088884 
G1 X6.086309 Y8.020741 
G1 X6.260962 Y7.986000 
G1 X6.439034 Y7.986000 
G1 X6.613688 Y8.020741 
G1 X6.778203 Y8.088884 
G1 X6.926266 Y8.187816 
G1 X7.052181 Y8.313731 
G1 X7.151112 Y8.461794 
G1 X7.219256 Y8.626309 
G1 X7.253997 Y8.800963 
G1 X7.253997 Y8.979034 
G1 X7.219256 Y9.153688 
G1 X7.151112 Y9.318203 
G1 X7.052181 Y9.466266 
G1 X6.926266 Y9.592181 
G1 X6.778203 Y9.691112 
G1 X6.613688 Y9.759256 
G1 X6.439034 Y9.793997 
G1 X6.260962 Y9.793997 
G1 X6.086309 Y9.759256 
G1 X5.921794 Y9.691112 
G1 X5.773731 Y9.592181 
G1 X5.647816 Y9.466266 
G1 X5.548884 Y9.318203 
G1 X5.480741 Y9.153688 
G1 X5.446000 Y8.979034 
G1 X5.446000 Y8.800963 
G1 X5.480741 Y8.626309 
G1 X5.548884 Y8.461794 
G1 X5.647816 Y8.313731 
G0 Z1.000000 
G0 X5.833394 Y10.656834 
G1 Z-0.200000 F144   
G1 X5.576834 Y10.913394 F200   
G1 X5.437997 Y11.248584 
G1 X5.437997 Y11.611409 
G1 X5.576834 Y11.946600 
G1 X5.833394 Y12.203159 
G1 X6.168584 Y12.341997 
G1 X6.531406 Y12.341997 
G1 X6.866600 Y12.203156 
G1 X7.123156 Y11.946600 
G1 X7.261997 Y11.611409 
G1 X7.261997 Y11.248581 
G1 X7.123159 Y10.913394 
G1 X6.866600 Y10.656834 
G1 X6.531409 Y10.517997 
G1 X6.168584 Y10.517997 
G1 X5.833394 Y10.656834 
G0 Z1.000000 
G0 X5.921794 Y10.628884 
G1 Z-0.200000 F144   
G1 X6.086309 Y10.560741 F200   
G1 X6.260962 Y10.526000 
G1 X6.439034 Y10.526000 
G1 X6.613688 Y10.560741 
G1 X6.778203 Y10.628884 
G1 X6.926266 Y10.727816 
G1 X7.052181 Y10.853731 
G1 X7.151112 Y11.001794 
G1 X7.219256 Y11.166309 
G1 X7.253997 Y11.340962 
G1 X7.253997 Y11.519034 
G1 X7.219256 Y11.693687 
G1 X7.151112 Y11.858203 
G1 X7.052181 Y12.006266 
G1 X6.926266 Y12.132181 
G1 X6.778203 Y12.231113 
G1 X6.613688 Y12.299256 
G1 X6.439034 Y12.333997 
G1 X6.260962 Y12.333997 
G1 X6.086309 Y12.299256 
G1 X5.921794 Y12.231113 
G1 X5.773731 Y12.132181 
G1 X5.647816 Y12.006266 
G1 X5.548884 Y11.858203 
G1 X5.480741 Y11.693687 
G1 X5.446000 Y11.519034 
G1 X5.446000 Y11.340962 
G1 X5.480741 Y11.166309 
G1 X5.548884 Y11.001794 
G1 X5.647816 Y10.853731 
G1 X5.773731 Y10.727816 
G1 X5.921794 Y10.628884 
G0 Z1.000000 
G0 X5.921794 Y13.168884 
G1 Z-0.200000 F144   
G1 X6.086309 Y13.100741 F200   
G1 X6.260962 Y13.066000 
G1 X6.439034 Y13.066000 
G1 X6.613688 Y13.100741 
G1 X6.778203 Y13.168884 
G1 X6.926266 Y13.267816 
G1 X7.052181 Y13.393731 
G1 X7.151112 Y13.541794 
G1 X7.219256 Y13.706309 
G1 X7.253997 Y13.880963 
G1 X7.253997 Y14.059034 
G1 X7.219256 Y14.233688 
G1 X7.151112 Y14.398203 
G1 X7.052181 Y14.546266 
G1 X6.926266 Y14.672181 
G1 X6.778203 Y14.771112 
G1 X6.613688 Y14.839256 
G1 X6.439034 Y14.873997 
G1 X6.260962 Y14.873997 
G1 X6.086309 Y14.839256 
G1 X5.921794 Y14.771112 
G1 X5.773731 Y14.672181 
G1 X5.647816 Y14.546266 
G1 X5.548884 Y14.398203 
G1 X5.480741 Y14.233688 
G1 X5.446000 Y14.059034 
G1 X5.446000 Y13.880963 
G1 X5.480741 Y13.706309 
G1 X5.548884 Y13.541794 
G1 X5.647816 Y13.393731 
G1 X5.773731 Y13.267816 
G1 X5.921794 Y13.168884 
G0 Z1.000000 
G0 X5.833394 Y13.196838 
G1 Z-0.200000 F144   
G1 X5.576837 Y13.453394 F200   
G1 X5.437997 Y13.788584 
G1 X5.437997 Y14.151409 
G1 X5.576837 Y14.486600 
G1 X5.833394 Y14.743156 
G1 X6.168584 Y14.881997 
G1 X6.531409 Y14.881997 
G1 X6.866600 Y14.743156 
G1 X7.123156 Y14.486600 
G1 X7.261997 Y14.151409 
G1 X7.261997 Y13.788584 
G1 X7.123156 Y13.453394 
G1 X6.866600 Y13.196838 
G1 X6.531409 Y13.057997 
G1 X6.168584 Y13.057997 
G1 X5.833394 Y13.196838 
G0 Z1.000000 
G0 X5.833394 Y15.736834 
G1 Z-0.200000 F144   
G1 X5.576834 Y15.993394 F200   
G1 X5.437997 Y16.328584 
G1 X5.437997 Y16.691409 
G1 X5.576834 Y17.026600 
G1 X5.833394 Y17.283159 
G1 X6.168584 Y17.421997 
G1 X6.531409 Y17.421997 
G1 X6.866600 Y17.283159 
G1 X7.123159 Y17.026600 
G1 X7.261997 Y16.691409 
G1 X7.261997 Y16.328584 
G1 X7.123156 Y15.993394 
G1 X6.866600 Y15.736834 
G1 X6.531409 Y15.597997 
G1 X6.168584 Y15.597997 
G1 X5.833394 Y15.736834 
G0 Z1.000000 
G0 X5.921794 Y15.708884 
G1 Z-0.200000 F144   
G1 X6.086309 Y15.640741 F200   
G1 X6.260962 Y15.606000 
G1 X6.439034 Y15.606000 
G1 X6.613688 Y15.640741 
G1 X6.778203 Y15.708884 
G1 X6.926266 Y15.807816 
G1 X7.052181 Y15.933731 
G1 X7.151112 Y16.081794 
G1 X7.219256 Y16.246309 
G1 X7.253997 Y16.420963 
G1 X7.253997 Y16.599034 
G1 X7.219256 Y16.773688 
G1 X7.151112 Y16.938203 
G1 X7.052181 Y17.086266 
G1 X6.926266 Y17.212181 
G1 X6.778203 Y17.311113 
G1 X6.613688 Y17.379256 
G1 X6.439034 Y17.413997 
G1 X6.260962 Y17.413997 
G1 X6.086309 Y17.379256 
G1 X5.921794 Y17.311113 
G1 X5.773731 Y17.212181 
G1 X5.647816 Y17.086266 
G1 X5.548884 Y16.938203 
G1 X5.480741 Y16.773688 
G1 X5.446000 Y16.599034 
G1 X5.446000 Y16.420963 
G1 X5.480741 Y16.246309 
G1 X5.548884 Y16.081794 
G1 X5.647816 Y15.933731 
G1 X5.773731 Y15.807816 
G1 X5.921794 Y15.708884 
G0 Z1.000000 
G0 X5.921794 Y18.248884 
G1 Z-0.200000 F144   
G1 X6.086309 Y18.180741 F200   
G1 X6.260962 Y18.146000 
G1 X6.439034 Y18.146000 
G1 X6.613688 Y18.180741 
G1 X6.778203 Y18.248884 
G1 X6.926266 Y18.347816 
G1 X7.052181 Y18.473731 
G1 X7.151112 Y18.621794 
G1 X7.219256 Y18.786309 
G1 X7.253997 Y18.960963 
G1 X7.253997 Y19.139034 
G1 X7.219256 Y19.313688 
G1 X7.151112 Y19.478203 
G1 X7.052181 Y19.626266 
G1 X6.926266 Y19.752181 
G1 X6.778203 Y19.851112 
G1 X6.613688 Y19.919256 
G1 X6.439034 Y19.953997 
G1 X6.260962 Y19.953997 
G1 X6.086309 Y19.919256 
G1 X5.921794 Y19.851112 
G1 X5.773731 Y19.752181 
G1 X5.647816 Y19.626266 
G1 X5.548884 Y19.478203 
G1 X5.480741 Y19.313688 
G1 X5.446000 Y19.139034 
G1 X5.446000 Y18.960963 
G1 X5.480741 Y18.786309 
G1 X5.548884 Y18.621794 
G1 X5.647816 Y18.473731 
G1 X5.773731 Y18.347816 
G1 X5.921794 Y18.248884 
G0 Z1.000000 
G0 X5.833394 Y18.276837 
G1 Z-0.200000 F144   
G1 X5.576837 Y18.533394 F200   
G1 X5.437997 Y18.868584 
G1 X5.437997 Y19.231409 
G1 X5.576837 Y19.566600 
G1 X5.833394 Y19.823156 
G1 X6.168584 Y19.961997 
G1 X6.531409 Y19.961997 
G1 X6.866600 Y19.823156 
G1 X7.123156 Y19.566600 
G1 X7.261997 Y19.231409 
G1 X7.261997 Y18.868584 
G1 X7.123156 Y18.533394 
G1 X6.866600 Y18.276837 
G1 X6.531409 Y18.137997 
G1 X6.168584 Y18.137997 
G1 X5.833394 Y18.276837 
G0 Z1.000000 
G0 X5.833394 Y20.816837 
G1 Z-0.200000 F144   
G1 X5.576837 Y21.073394 F200   
G1 X5.437997 Y21.408584 
G1 X5.437997 Y21.595947 
G1 X5.415766 Y21.678909 
G1 X5.372822 Y21.753294 
G1 X5.312091 Y21.814025 
G1 X2.229519 Y24.896597 
G1 X2.052109 Y25.074003 
G1 X1.964497 Y25.285519 
G1 X1.964497 Y72.504475 
G1 X2.052109 Y72.715991 
G1 X2.826422 Y73.490300 
G1 X2.869366 Y73.564684 
G1 X2.891597 Y73.647647 
G1 X2.891597 Y74.040409 
G1 X3.429584 Y74.578397 
G1 X4.190409 Y74.578397 
G1 X4.728397 Y74.040409 
G1 X4.728397 Y73.279584 
G1 X4.190409 Y72.741597 
G1 X3.797647 Y72.741597 
G1 X3.714684 Y72.719369 
G1 X3.668128 Y72.692487 
G1 X3.640300 Y72.676422 
G1 X3.579569 Y72.615691 
G1 X3.246597 Y72.282719 
G1 X3.189403 Y72.225525 
G1 X3.142919 Y72.147606 
G1 X3.120687 Y72.064644 
G1 X3.120687 Y71.978750 
G1 X3.142916 Y71.895787 
G1 X3.170491 Y71.848031 
G1 X3.185862 Y71.821403 
G1 X3.245650 Y71.761619 
G1 X3.320975 Y71.717728 
G1 X3.403938 Y71.695497 
G1 X4.749447 Y71.695497 
G1 X4.832409 Y71.717725 
G1 X4.905847 Y71.760128 
G1 X4.936506 Y71.790384 
G1 X6.753488 Y73.607366 
G1 X6.784506 Y73.638384 
G1 X6.814222 Y73.668097 
G1 X6.857166 Y73.742481 
G1 X6.879397 Y73.825444 
G1 X6.879397 Y75.183691 
G1 X7.034681 Y75.558581 
G1 X7.321612 Y75.845512 
G1 X7.696500 Y76.000797 
G1 X8.102291 Y76.000797 
G1 X8.477181 Y75.845512 
G1 X8.764112 Y75.558581 
G1 X8.919397 Y75.183691 
G1 X8.919397 Y73.253903 
G1 X8.764112 Y72.879013 
G1 X8.477181 Y72.592081 
G1 X8.102291 Y72.436797 
G1 X7.696503 Y72.436797 
G1 X7.574084 Y72.487506 
G1 X7.534594 Y72.503862 
G1 X7.493278 Y72.514934 
G1 X7.450891 Y72.520516 
G1 X7.408125 Y72.520516 
G1 X7.365734 Y72.514934 
G1 X7.324425 Y72.503862 
G1 X7.284937 Y72.487509 
G1 X7.247891 Y72.466119 
G1 X7.213972 Y72.440094 
G1 X7.183731 Y72.409856 
G1 X5.725862 Y70.951988 
G1 X5.682919 Y70.877603 
G1 X5.660687 Y70.794641 
G1 X5.660687 Y70.708750 
G1 X5.682919 Y70.625788 
G1 X5.725862 Y70.551403 
G1 X5.786594 Y70.490672 
G1 X5.860978 Y70.447728 
G1 X5.943941 Y70.425497 
G1 X8.559447 Y70.425497 
G1 X8.642409 Y70.447728 
G1 X8.716794 Y70.490672 
G1 X8.777525 Y70.551403 
G1 X9.519322 Y71.293200 
G1 X9.562266 Y71.367584 
G1 X9.584497 Y71.450547 
G1 X9.584497 Y76.314475 
G1 X9.672109 Y76.525991 
G1 X10.926597 Y77.780475 
G1 X11.104003 Y77.957884 
G1 X11.315519 Y78.045497 
G1 X24.244475 Y78.045497 
G1 X24.455991 Y77.957884 
G1 X26.347900 Y76.065972 
G1 X26.422284 Y76.023028 
G1 X26.505247 Y76.000797 
G1 X26.593491 Y76.000797 
G1 X26.968381 Y75.845512 
G1 X27.255312 Y75.558581 
G1 X27.410597 Y75.183691 
G1 X27.410597 Y74.518750 
G1 X27.432828 Y74.435788 
G1 X27.475772 Y74.361403 
G1 X27.536503 Y74.300672 
G1 X27.610888 Y74.257728 
G1 X27.693850 Y74.235497 
G1 X29.664513 Y74.235497 
G1 X29.747475 Y74.257728 
G1 X29.821859 Y74.300672 
G1 X29.882591 Y74.361403 
G1 X30.099584 Y74.578397 
G1 X30.860409 Y74.578397 
G1 X31.398397 Y74.040409 
G1 X31.398397 Y73.279584 
G1 X30.860409 Y72.741597 
G1 X30.099584 Y72.741597 
G1 X29.821859 Y73.019322 
G1 X29.747475 Y73.062266 
G1 X29.664513 Y73.084497 
G1 X27.579766 Y73.084497 
G1 X27.536994 Y73.084497 
G1 X27.494616 Y73.078916 
G1 X27.453287 Y73.067844 
G1 X27.413812 Y73.051491 
G1 X27.376759 Y73.030097 
G1 X27.342844 Y73.004075 
G1 X27.312606 Y72.973838 
G1 X27.286575 Y72.939909 
G1 X27.265194 Y72.902875 
G1 X27.252188 Y72.875891 
G1 X26.968381 Y72.592081 
G1 X26.593491 Y72.436797 
G1 X26.187703 Y72.436797 
G1 X25.812812 Y72.592081 
G1 X25.525881 Y72.879013 
G1 X25.370597 Y73.253903 
G1 X25.370597 Y75.183672 
G1 X25.379922 Y75.228134 
G1 X25.382738 Y75.271047 
G1 X25.379922 Y75.314025 
G1 X25.371534 Y75.356203 
G1 X25.357691 Y75.396987 
G1 X25.338675 Y75.435559 
G1 X25.314747 Y75.471372 
G1 X25.286394 Y75.503703 
G1 X23.956794 Y76.829322 
G1 X23.882409 Y76.872269 
G1 X23.799447 Y76.894497 
G1 X11.760547 Y76.894497 
G1 X11.677584 Y76.872266 
G1 X11.603200 Y76.829322 
G1 X11.542469 Y76.768591 
G1 X10.800672 Y76.026794 
G1 X10.757728 Y75.952409 
G1 X10.735497 Y75.869447 
G1 X10.735497 Y71.005519 
G1 X10.647884 Y70.794003 
G1 X10.409744 Y70.555866 
G1 X9.215991 Y69.362109 
G1 X9.004475 Y69.274497 
G1 X4.668750 Y69.274497 
G1 X4.585788 Y69.252266 
G1 X4.511403 Y69.209322 
G1 X4.450672 Y69.148591 
G1 X4.407728 Y69.074206 
G1 X4.385497 Y68.991244 
G1 X4.385497 Y48.110584 
G1 X4.407728 Y48.027622 
G1 X4.449728 Y47.954881 
G1 X4.511403 Y47.892509 
G1 X4.539231 Y47.876444 
G1 X4.585788 Y47.849562 
G1 X4.667806 Y47.827587 
G1 X4.754644 Y47.827334 
G1 X4.837606 Y47.849566 
G1 X4.910347 Y47.891566 
G1 X4.972719 Y47.953241 
G1 X5.412509 Y48.393041 
G1 X6.020794 Y48.644997 
G1 X6.679200 Y48.644997 
G1 X7.287478 Y48.393044 
G1 X7.753044 Y47.927478 
G1 X8.004997 Y47.319200 
G1 X8.004997 Y46.660794 
G1 X7.753044 Y46.052516 
G1 X7.287484 Y45.586956 
G1 X7.203409 Y45.552131 
G1 X7.163903 Y45.535769 
G1 X7.126866 Y45.514384 
G1 X7.092956 Y45.488363 
G1 X7.062703 Y45.458109 
G1 X7.036688 Y45.424206 
G1 X7.015297 Y45.387159 
G1 X6.998941 Y45.347669 
G1 X6.987869 Y45.306347 
G1 X6.982287 Y45.263969 
G1 X6.982287 Y45.221197 
G1 X6.987869 Y45.178812 
G1 X6.998938 Y45.137503 
G1 X7.015300 Y45.098000 
G1 X7.036684 Y45.060963 
G1 X7.062706 Y45.027050 
G1 X7.092956 Y44.996800 
G1 X7.123159 Y44.966600 
G1 X7.261997 Y44.631413 
G1 X7.261997 Y44.268584 
G1 X7.123156 Y43.933394 
G1 X6.866600 Y43.676837 
G1 X6.531409 Y43.537997 
G1 X6.168584 Y43.537997 
G1 X5.833394 Y43.676837 
G1 X5.576837 Y43.933394 
G1 X5.437997 Y44.268584 
G1 X5.437997 Y44.631409 
G1 X5.576837 Y44.966600 
G1 X5.607037 Y44.996800 
G1 X5.637288 Y45.027050 
G1 X5.663309 Y45.060963 
G1 X5.684694 Y45.098000 
G1 X5.701056 Y45.137503 
G1 X5.712125 Y45.178809 
G1 X5.717706 Y45.221197 
G1 X5.717706 Y45.263969 
G1 X5.712125 Y45.306347 
G1 X5.701056 Y45.347669 
G1 X5.684697 Y45.387159 
G1 X5.663306 Y45.424206 
G1 X5.637291 Y45.458112 
G1 X5.607041 Y45.488363 
G1 X5.573128 Y45.514384 
G1 X5.536094 Y45.535769 
G1 X5.496584 Y45.552131 
G1 X5.412506 Y45.586959 
G1 X4.972719 Y46.026750 
G1 X4.916478 Y46.082991 
G1 X4.837606 Y46.130428 
G1 X4.754644 Y46.152659 
G1 X4.668750 Y46.152659 
G1 X4.585788 Y46.130431 
G1 X4.538031 Y46.102856 
G1 X4.511403 Y46.087484 
G1 X4.451619 Y46.027697 
G1 X4.407728 Y45.952372 
G1 X4.385497 Y45.869409 
G1 X4.385497 Y27.000547 
G1 X4.407725 Y26.917584 
G1 X4.434606 Y26.871028 
G1 X4.450672 Y26.843200 
G1 X4.511403 Y26.782469 
G1 X4.850775 Y26.443097 
G1 X4.907919 Y26.385953 
G1 X4.985887 Y26.339419 
G1 X5.068850 Y26.317187 
G1 X5.154744 Y26.317187 
G1 X5.237706 Y26.339416 
G1 X5.285463 Y26.366991 
G1 X5.312091 Y26.382362 
G1 X5.371875 Y26.442150 
G1 X5.415766 Y26.517475 
G1 X5.437997 Y26.600438 
G1 X5.437997 Y26.851409 
G1 X5.576837 Y27.186600 
G1 X5.833394 Y27.443156 
G1 X6.168584 Y27.581997 
G1 X6.531409 Y27.581997 
G1 X6.866600 Y27.443156 
G1 X7.123159 Y27.186600 
G1 X7.261997 Y26.851409 
G1 X7.261997 Y26.488584 
G1 X7.123159 Y26.153394 
G1 X6.866600 Y25.896834 
G1 X6.531409 Y25.757997 
G1 X6.280441 Y25.757997 
G1 X6.197478 Y25.735766 
G1 X6.123094 Y25.692822 
G1 X6.062362 Y25.632091 
G1 X6.019419 Y25.557706 
G1 X5.997187 Y25.474744 
G1 X5.997187 Y25.388853 
G1 X6.019419 Y25.305891 
G1 X6.062362 Y25.231506 
G1 X6.123094 Y25.170775 
G1 X6.186697 Y25.107172 
G1 X6.261081 Y25.064228 
G1 X6.344044 Y25.041997 
G1 X6.531409 Y25.041997 
G1 X6.866600 Y24.903159 
G1 X7.123159 Y24.646600 
G1 X7.261997 Y24.311409 
G1 X7.261997 Y23.948584 
G1 X7.123159 Y23.613394 
G1 X6.866603 Y23.356838 
G1 X6.531409 Y23.217997 
G1 X6.280431 Y23.217997 
G1 X6.214684 Y23.200375 
G1 X6.123087 Y23.152819 
G1 X6.063303 Y23.093031 
G1 X6.026603 Y23.030147 
G1 X6.009353 Y22.980144 
G1 X5.997187 Y22.934744 
G1 X5.997187 Y22.848844 
G1 X6.014809 Y22.783097 
G1 X6.062366 Y22.691500 
G1 X6.186706 Y22.567166 
G1 X6.250534 Y22.530319 
G1 X6.300537 Y22.513656 
G1 X6.344047 Y22.501997 
G1 X6.531409 Y22.501997 
G1 X6.866600 Y22.363156 
G1 X7.123156 Y22.106600 
G1 X7.261997 Y21.771409 
G1 X7.261997 Y21.408584 
G1 X7.123156 Y21.073394 
G1 X6.866600 Y20.816837 
G1 X6.531409 Y20.677997 
G1 X6.168584 Y20.677997 
G1 X5.833394 Y20.816837 
G0 Z1.000000 
G0 X5.921794 Y20.788884 
G1 Z-0.200000 F144   
G1 X6.086309 Y20.720741 F200   
G1 X6.260962 Y20.686000 
G1 X6.439034 Y20.686000 
G1 X6.613688 Y20.720741 
G1 X6.778203 Y20.788884 
G1 X6.926266 Y20.887816 
G1 X7.052181 Y21.013731 
G1 X7.151112 Y21.161794 
G1 X7.219256 Y21.326309 
G1 X7.253997 Y21.500962 
G1 X7.253997 Y21.679034 
G1 X7.219256 Y21.853687 
G1 X7.151112 Y22.018203 
G1 X7.052181 Y22.166266 
G1 X6.926266 Y22.292181 
G1 X6.778203 Y22.391112 
G1 X6.613688 Y22.459256 
G1 X6.439034 Y22.493997 
G1 X6.260962 Y22.493997 
G1 X3.107497 Y25.635063 
G1 X3.107497 Y70.552500 
G1 X5.154712 Y70.552500 
G1 X5.299047 Y70.591175 
G1 X5.428450 Y70.665887 
G1 X7.361594 Y72.599031 
G1 X7.420038 Y72.559978 
G1 X7.604209 Y72.483691 
G1 X7.799725 Y72.444800 
G1 X7.999072 Y72.444800 
G1 X8.194588 Y72.483691 
G1 X8.378759 Y72.559978 
G1 X8.544509 Y72.670728 
G1 X8.685469 Y72.811688 
G1 X8.796219 Y72.977437 
G1 X8.872506 Y73.161609 
G1 X8.911397 Y73.357125 
G1 X8.911397 Y75.080472 
G1 X8.872506 Y75.275987 
G1 X8.796219 Y75.460159 
G1 X8.685469 Y75.625909 
G1 X8.544509 Y75.766869 
G1 X8.378759 Y75.877619 
G1 X8.194588 Y75.953906 
G1 X7.999072 Y75.992797 
G1 X7.799725 Y75.992797 
G1 X7.604209 Y75.953906 
G1 X7.420038 Y75.877619 
G1 X7.254288 Y75.766869 
G1 X7.113328 Y75.625909 
G1 X7.002578 Y75.460159 
G1 X6.926291 Y75.275987 
G1 X6.887400 Y75.080472 
G1 X6.887400 Y73.729962 
G1 X4.844934 Y71.687497 
G1 X3.107497 Y71.687497 
G1 X3.107497 Y72.154934 
G1 X3.702163 Y72.749600 
G1 X4.187097 Y72.749600 
G1 X4.720397 Y73.282900 
G1 X4.720397 Y74.037097 
G1 X4.187097 Y74.570397 
G1 X3.432900 Y74.570397 
G1 X2.899600 Y74.037097 
G1 X2.899600 Y73.552162 
G1 X2.085888 Y72.738450 
G1 X2.011175 Y72.609047 
G1 X1.972500 Y72.464713 
G1 X1.972500 Y25.325284 
G1 X2.011175 Y25.180950 
G1 X2.085888 Y25.051547 
G1 X2.191547 Y24.945888 
G1 X5.448059 Y21.689378 
G1 X5.446000 Y21.500962 
G1 X5.480741 Y21.326309 
G1 X5.548884 Y21.161794 
G1 X5.647816 Y21.013731 
G1 X5.773731 Y20.887816 
G1 X5.921794 Y20.788884 
G0 Z1.000000 
G0 X5.921794 Y23.328884 
G1 Z-0.200000 F144   
G1 X6.086309 Y23.260741 F200   
G1 X6.260962 Y23.226000 
G1 X6.439034 Y23.226000 
G1 X6.613688 Y23.260741 
G1 X6.778203 Y23.328884 
G1 X6.926266 Y23.427816 
G1 X7.052181 Y23.553731 
G1 X7.151112 Y23.701794 
G1 X7.219256 Y23.866309 
G1 X7.253997 Y24.040962 
G1 X7.253997 Y24.219034 
G1 X7.219256 Y24.393687 
G1 X7.151112 Y24.558203 
G1 X7.052181 Y24.706266 
G1 X6.926266 Y24.832181 
G1 X6.778203 Y24.931113 
G1 X6.613688 Y24.999256 
G1 X6.439034 Y25.033997 
G1 X6.260962 Y25.033997 
G1 X4.377497 Y26.905062 
G1 X4.377497 Y69.282500 
G1 X8.964712 Y69.282500 
G1 X9.109047 Y69.321175 
G1 X9.238450 Y69.395888 
G1 X10.508450 Y70.665887 
G1 X10.614109 Y70.771547 
G1 X10.688822 Y70.900950 
G1 X10.727497 Y71.045284 
G1 X10.727497 Y75.964934 
G1 X11.665062 Y76.902500 
G1 X23.894934 Y76.902500 
G1 X25.447941 Y75.349497 
G1 X25.417491 Y75.275987 
G1 X25.378600 Y75.080472 
G1 X25.378600 Y73.357125 
G1 X25.417491 Y73.161609 
G1 X25.493778 Y72.977437 
G1 X25.604528 Y72.811688 
G1 X25.745487 Y72.670728 
G1 X25.911237 Y72.559978 
G1 X26.095409 Y72.483691 
G1 X26.290925 Y72.444800 
G1 X26.490272 Y72.444800 
G1 X26.685787 Y72.483691 
G1 X26.869959 Y72.559978 
G1 X27.035709 Y72.670728 
G1 X27.176669 Y72.811688 
G1 X27.287419 Y72.977437 
G1 X27.335078 Y73.092500 
G1 X29.760000 Y73.092500 
G1 X30.102900 Y72.749600 
G1 X30.857097 Y72.749600 
G1 X31.390397 Y73.282900 
G1 X31.390397 Y74.037097 
G1 X30.857097 Y74.570397 
G1 X30.102900 Y74.570397 
G1 X29.760000 Y74.227497 
G1 X27.402597 Y74.227497 
G1 X27.402597 Y75.080472 
G1 X27.363706 Y75.275987 
G1 X27.287419 Y75.460159 
G1 X27.176669 Y75.625909 
G1 X27.035709 Y75.766869 
G1 X26.869959 Y75.877619 
G1 X26.685787 Y75.953906 
G1 X26.490272 Y75.992797 
G1 X26.409762 Y75.992797 
G1 X24.478450 Y77.924109 
G1 X24.349047 Y77.998822 
G1 X24.204712 Y78.037497 
G1 X11.355284 Y78.037497 
G1 X11.210950 Y77.998822 
G1 X11.081547 Y77.924109 
G1 X10.975888 Y77.818450 
G1 X9.705887 Y76.548450 
G1 X9.631175 Y76.419047 
G1 X9.592500 Y76.274713 
G1 X9.592500 Y71.355063 
G1 X8.654934 Y70.417497 
G1 X3.735284 Y70.417497 
G1 X3.590950 Y70.378822 
G1 X3.461547 Y70.304109 
G1 X3.355888 Y70.198450 
G1 X3.281175 Y70.069047 
G1 X3.242500 Y69.924712 
G1 X3.242500 Y26.595284 
G1 X3.281175 Y26.450950 
G1 X3.355888 Y26.321547 
G1 X3.461547 Y26.215888 
G1 X5.448059 Y24.229378 
G1 X5.446000 Y24.040962 
G1 X5.480741 Y23.866309 
G1 X5.548884 Y23.701794 
G1 X5.647816 Y23.553731 
G1 X5.773731 Y23.427816 
G1 X5.921794 Y23.328884 
G0 Z1.000000 
G0 X5.921794 Y25.868884 
G1 Z-0.200000 F144   
G1 X6.086309 Y25.800741 F200   
G1 X6.260962 Y25.766000 
G1 X6.439034 Y25.766000 
G1 X6.613688 Y25.800741 
G1 X6.778203 Y25.868884 
G1 X6.926266 Y25.967816 
G1 X7.052181 Y26.093731 
G1 X7.151112 Y26.241794 
G1 X7.219256 Y26.406309 
G1 X7.253997 Y26.580962 
G1 X7.253997 Y26.759034 
G1 X7.219256 Y26.933688 
G1 X7.151112 Y27.098203 
G1 X7.052181 Y27.246266 
G1 X6.926266 Y27.372181 
G1 X6.778203 Y27.471113 
G1 X6.613688 Y27.539256 
G1 X6.439034 Y27.573997 
G1 X6.260962 Y27.573997 
G1 X6.086309 Y27.539256 
G1 X5.921794 Y27.471113 
G1 X5.773731 Y27.372181 
G1 X5.647816 Y27.246266 
G1 X5.548884 Y27.098203 
G1 X5.480741 Y26.933688 
G1 X5.446000 Y26.759034 
G1 X5.446000 Y26.580962 
G1 X5.480741 Y26.406309 
G1 X5.548884 Y26.241794 
G1 X5.647816 Y26.093731 
G1 X5.773731 Y25.967816 
G1 X5.921794 Y25.868884 
G0 Z1.000000 
G0 X5.921794 Y28.408884 
G1 Z-0.200000 F144   
G1 X6.086309 Y28.340741 F200   
G1 X6.260962 Y28.306000 
G1 X6.439034 Y28.306000 
G1 X6.613688 Y28.340741 
G1 X6.778203 Y28.408884 
G1 X6.926266 Y28.507816 
G1 X7.052181 Y28.633731 
G1 X7.151112 Y28.781794 
G1 X7.219256 Y28.946309 
G1 X7.253997 Y29.120963 
G1 X7.253997 Y29.299034 
G1 X7.219256 Y29.473688 
G1 X7.151112 Y29.638203 
G1 X7.052181 Y29.786266 
G1 X6.926266 Y29.912181 
G1 X6.778203 Y30.011112 
G1 X6.613688 Y30.079256 
G1 X6.439034 Y30.113997 
G1 X6.260962 Y30.113997 
G1 X6.086309 Y30.079256 
G1 X5.921794 Y30.011112 
G1 X5.773731 Y29.912181 
G1 X5.647816 Y29.786266 
G1 X5.548884 Y29.638203 
G1 X5.480741 Y29.473688 
G1 X5.446000 Y29.299034 
G1 X5.446000 Y29.120963 
G1 X5.480741 Y28.946309 
G1 X5.548884 Y28.781794 
G1 X5.647816 Y28.633731 
G1 X5.773731 Y28.507816 
G1 X5.921794 Y28.408884 
G0 Z1.000000 
G0 X5.833394 Y28.436837 
G1 Z-0.200000 F144   
G1 X5.576834 Y28.693394 F200   
G1 X5.437997 Y29.028584 
G1 X5.437997 Y29.391409 
G1 X5.576834 Y29.726600 
G1 X5.833394 Y29.983159 
G1 X6.168584 Y30.121997 
G1 X6.531409 Y30.121997 
G1 X6.866600 Y29.983159 
G1 X7.123159 Y29.726600 
G1 X7.261997 Y29.391409 
G1 X7.261997 Y29.028584 
G1 X7.123156 Y28.693394 
G1 X6.866600 Y28.436837 
G1 X6.531409 Y28.297997 
G1 X6.168584 Y28.297997 
G1 X5.833394 Y28.436837 
G0 Z1.000000 
G0 X5.833394 Y30.976837 
G1 Z-0.200000 F144   
G1 X5.576837 Y31.233394 F200   
G1 X5.437997 Y31.568584 
G1 X5.437997 Y31.931409 
G1 X5.576837 Y32.266600 
G1 X5.833394 Y32.523156 
G1 X6.168584 Y32.661997 
G1 X6.531409 Y32.661997 
G1 X6.866600 Y32.523156 
G1 X7.123156 Y32.266600 
G1 X7.261997 Y31.931409 
G1 X7.261997 Y31.568581 
G1 X7.123159 Y31.233394 
G1 X6.866600 Y30.976834 
G1 X6.531409 Y30.837997 
G1 X6.168588 Y30.837997 
G1 X5.833394 Y30.976837 
G0 Z1.000000 
G0 X5.921794 Y30.948884 
G1 Z-0.200000 F144   
G1 X6.086309 Y30.880741 F200   
G1 X6.260962 Y30.846000 
G1 X6.439034 Y30.846000 
G1 X6.613688 Y30.880741 
G1 X6.778203 Y30.948884 
G1 X6.926266 Y31.047816 
G1 X7.052181 Y31.173731 
G1 X7.151112 Y31.321794 
G1 X7.219256 Y31.486309 
G1 X7.253997 Y31.660963 
G1 X7.253997 Y31.839034 
G1 X7.219256 Y32.013688 
G1 X7.151112 Y32.178203 
G1 X7.052181 Y32.326266 
G1 X6.926266 Y32.452181 
G1 X6.778203 Y32.551113 
G1 X6.613688 Y32.619256 
G1 X6.439034 Y32.653997 
G1 X6.260962 Y32.653997 
G1 X6.086309 Y32.619256 
G1 X5.921794 Y32.551113 
G1 X5.773731 Y32.452181 
G1 X5.647816 Y32.326266 
G1 X5.548884 Y32.178203 
G1 X5.480741 Y32.013688 
G1 X5.446000 Y31.839034 
G1 X5.446000 Y31.660963 
G1 X5.480741 Y31.486309 
G1 X5.548884 Y31.321794 
G1 X5.647816 Y31.173731 
G1 X5.773731 Y31.047816 
G1 X5.921794 Y30.948884 
G0 Z1.000000 
G0 X5.921794 Y33.488884 
G1 Z-0.200000 F144   
G1 X6.086309 Y33.420741 F200   
G1 X6.260962 Y33.386000 
G1 X6.439034 Y33.386000 
G1 X6.613688 Y33.420741 
G1 X6.778203 Y33.488884 
G1 X6.926266 Y33.587816 
G1 X7.052181 Y33.713731 
G1 X7.151112 Y33.861794 
G1 X7.219256 Y34.026309 
G1 X7.253997 Y34.200963 
G1 X7.253997 Y34.379034 
G1 X7.219256 Y34.553688 
G1 X7.151112 Y34.718203 
G1 X7.052181 Y34.866266 
G1 X6.926266 Y34.992181 
G1 X6.778203 Y35.091113 
G1 X6.613688 Y35.159256 
G1 X6.439034 Y35.193997 
G1 X6.260962 Y35.193997 
G1 X6.086309 Y35.159256 
G1 X5.921794 Y35.091113 
G1 X5.773731 Y34.992181 
G1 X5.647816 Y34.866266 
G1 X5.548884 Y34.718203 
G1 X5.480741 Y34.553688 
G1 X5.446000 Y34.379034 
G1 X5.446000 Y34.200963 
G1 X5.480741 Y34.026309 
G1 X5.548884 Y33.861794 
G1 X5.647816 Y33.713731 
G1 X5.773731 Y33.587816 
G1 X5.921794 Y33.488884 
G0 Z1.000000 
G0 X5.833394 Y33.516838 
G1 Z-0.200000 F144   
G1 X5.576837 Y33.773394 F200   
G1 X5.437997 Y34.108584 
G1 X5.437997 Y34.471409 
G1 X5.576837 Y34.806600 
G1 X5.833394 Y35.063159 
G1 X6.168584 Y35.201997 
G1 X6.531409 Y35.201997 
G1 X6.866600 Y35.063159 
G1 X7.123159 Y34.806600 
G1 X7.261997 Y34.471409 
G1 X7.261997 Y34.108584 
G1 X7.123156 Y33.773394 
G1 X6.866600 Y33.516838 
G1 X6.531409 Y33.377997 
G1 X6.168584 Y33.377997 
G1 X5.833394 Y33.516838 
G0 Z1.000000 
G0 X5.872000 Y36.049988 
G1 Z-0.200000 F144   
G1 X5.755869 Y36.134359 F200   
G1 X5.654359 Y36.235869 
G1 X5.569987 Y36.352000 
G1 X5.531466 Y36.427600 
G1 X5.548884 Y36.401794 
G1 X5.647816 Y36.253731 
G1 X5.773731 Y36.127816 
G1 X5.921794 Y36.028884 
G1 X5.947600 Y36.018197 
G1 X5.872000 Y36.049988 
G0 Z1.000000 
G0 X6.752391 Y36.018194 
G1 Z-0.200000 F144   
G1 X6.778203 Y36.028884 F200   
G1 X6.926266 Y36.127816 
G1 X7.052181 Y36.253731 
G1 X7.151112 Y36.401794 
G1 X7.161800 Y36.427600 
G1 X7.130006 Y36.352003 
G1 X7.045631 Y36.235869 
G1 X6.944125 Y36.134363 
G1 X6.827991 Y36.049988 
G1 X6.752391 Y36.011466 
G0 Z1.000000 
G0 X7.161803 Y37.232391 
G1 Z-0.200000 F144   
G1 X7.151112 Y37.258203 F200   
G1 X7.052181 Y37.406266 
G1 X6.926266 Y37.532181 
G1 X6.778203 Y37.631113 
G1 X6.752391 Y37.641803 
G1 X6.827994 Y37.610006 
G1 X6.944125 Y37.525631 
G1 X7.045634 Y37.424125 
G1 X7.130006 Y37.307991 
G1 X7.168528 Y37.232391 
G0 Z1.000000 
G0 X5.538194 Y37.232391 
G1 Z-0.200000 F144   
G1 X5.531466 Y37.232391 F200   
G1 X5.569987 Y37.307994 
G1 X5.654363 Y37.424125 
G1 X5.755869 Y37.525631 
G1 X5.872003 Y37.610006 
G1 X5.947600 Y37.648528 
G1 X5.921794 Y37.631113 
G1 X5.773731 Y37.532181 
G1 X5.647816 Y37.406266 
G1 X5.548884 Y37.258203 
G1 X5.538194 Y37.232391 
G0 Z1.000000 
G0 X5.576834 Y38.853394 
G1 Z-0.200000 F144   
G1 X5.437997 Y39.188584 F200   
G1 X5.437997 Y39.551409 
G1 X5.576837 Y39.886600 
G1 X5.833394 Y40.143159 
G1 X6.168584 Y40.281997 
G1 X6.531409 Y40.281997 
G1 X6.866600 Y40.143159 
G1 X7.123159 Y39.886600 
G1 X7.261997 Y39.551409 
G1 X7.261997 Y39.188584 
G1 X7.123156 Y38.853394 
G1 X6.866600 Y38.596837 
G1 X6.531409 Y38.457997 
G1 X6.168584 Y38.457997 
G1 X5.833394 Y38.596837 
G1 X5.576834 Y38.853394 
G0 Z1.000000 
G0 X5.548884 Y38.941794 
G1 Z-0.200000 F144   
G1 X5.647816 Y38.793731 F200   
G1 X5.773731 Y38.667816 
G1 X5.921794 Y38.568884 
G1 X6.086309 Y38.500741 
G1 X6.260962 Y38.466000 
G1 X6.439034 Y38.466000 
G1 X6.613688 Y38.500741 
G1 X6.778203 Y38.568884 
G1 X6.926266 Y38.667816 
G1 X7.052181 Y38.793731 
G1 X7.151112 Y38.941794 
G1 X7.219256 Y39.106309 
G1 X7.253997 Y39.280963 
G1 X7.253997 Y39.459034 
G1 X7.219256 Y39.633688 
G1 X7.151112 Y39.798203 
G1 X7.052181 Y39.946266 
G1 X6.926266 Y40.072181 
G1 X6.778203 Y40.171112 
G1 X6.613688 Y40.239256 
G1 X6.439034 Y40.273997 
G1 X6.260962 Y40.273997 
G1 X6.086309 Y40.239256 
G1 X5.921794 Y40.171112 
G1 X5.773731 Y40.072181 
G1 X5.647816 Y39.946266 
G1 X5.548884 Y39.798203 
G1 X5.480741 Y39.633688 
G1 X5.446000 Y39.459034 
G1 X5.446000 Y39.280963 
G1 X5.480741 Y39.106309 
G1 X5.548884 Y38.941794 
G0 Z1.000000 
G0 X5.833394 Y41.136837 
G1 Z-0.200000 F144   
G1 X5.576837 Y41.393394 F200   
G1 X5.437997 Y41.728584 
G1 X5.437997 Y42.091409 
G1 X5.576837 Y42.426600 
G1 X5.833394 Y42.683156 
G1 X6.168584 Y42.821997 
G1 X6.531409 Y42.821997 
G1 X6.866600 Y42.683156 
G1 X7.123156 Y42.426600 
G1 X7.261997 Y42.091409 
G1 X7.261997 Y41.728581 
G1 X7.123159 Y41.393394 
G1 X6.866600 Y41.136834 
G1 X6.531413 Y40.997997 
G1 X6.168584 Y40.997997 
G1 X5.833394 Y41.136837 
G0 Z1.000000 
G0 X5.921794 Y41.108884 
G1 Z-0.200000 F144   
G1 X6.086309 Y41.040741 F200   
G1 X6.260962 Y41.006000 
G1 X6.439034 Y41.006000 
G1 X6.613688 Y41.040741 
G1 X6.778203 Y41.108884 
G1 X6.926266 Y41.207816 
G1 X7.052181 Y41.333731 
G1 X7.151112 Y41.481794 
G1 X7.219256 Y41.646309 
G1 X7.253997 Y41.820963 
G1 X7.253997 Y41.999034 
G1 X7.219256 Y42.173687 
G1 X7.151112 Y42.338203 
G1 X7.052181 Y42.486266 
G1 X6.926266 Y42.612181 
G1 X6.778203 Y42.711112 
G1 X6.613688 Y42.779256 
G1 X6.439034 Y42.813997 
G1 X6.260962 Y42.813997 
G1 X6.086309 Y42.779256 
G1 X5.921794 Y42.711112 
G1 X5.773731 Y42.612181 
G1 X5.647816 Y42.486266 
G1 X5.548884 Y42.338203 
G1 X5.480741 Y42.173687 
G1 X5.446000 Y41.999034 
G1 X5.446000 Y41.820963 
G1 X5.480741 Y41.646309 
G1 X5.548884 Y41.481794 
G1 X5.647816 Y41.333731 
G1 X5.773731 Y41.207816 
G1 X5.921794 Y41.108884 
G0 Z1.000000 
G0 X5.921794 Y43.648884 
G1 Z-0.200000 F144   
G1 X6.086309 Y43.580741 F200   
G1 X6.260962 Y43.546000 
G1 X6.439034 Y43.546000 
G1 X6.613688 Y43.580741 
G1 X6.778203 Y43.648884 
G1 X6.926266 Y43.747816 
G1 X7.052181 Y43.873731 
G1 X7.151112 Y44.021794 
G1 X7.219256 Y44.186309 
G1 X7.253997 Y44.360962 
G1 X7.253997 Y44.539034 
G1 X7.219256 Y44.713687 
G1 X7.151112 Y44.878203 
G1 X7.052181 Y45.026266 
G1 X6.926266 Y45.152181 
G1 X6.778203 Y45.251112 
G1 X6.613688 Y45.319256 
G1 X6.439034 Y45.353997 
G1 X6.260962 Y45.353997 
G1 X6.086309 Y45.319256 
G1 X5.921794 Y45.251112 
G1 X5.773731 Y45.152181 
G1 X5.647816 Y45.026266 
G1 X5.548884 Y44.878203 
G1 X5.480741 Y44.713687 
G1 X5.446000 Y44.539034 
G1 X5.446000 Y44.360962 
G1 X5.480741 Y44.186309 
G1 X5.548884 Y44.021794 
G1 X5.647816 Y43.873731 
G1 X5.773731 Y43.747816 
G1 X5.921794 Y43.648884 
G0 Z1.000000 
G0 X8.225513 Y53.069981 
G1 Z-0.200000 F144   
G1 X8.111981 Y53.183512 F200   
G1 X8.017613 Y53.313397 
G1 X7.944728 Y53.456447 
G1 X7.895112 Y53.609144 
G1 X7.869997 Y53.767719 
G1 X7.869997 Y54.207600 
G1 X7.878000 Y53.748325 
G1 X7.916891 Y53.552809 
G1 X7.993178 Y53.368637 
G1 X8.103928 Y53.202888 
G1 X8.244888 Y53.061928 
G1 X8.410637 Y52.951178 
G1 X8.487600 Y52.919300 
G1 X8.355394 Y52.975612 
G1 X8.225513 Y53.069981 
G0 Z1.000000 
G0 X9.292391 Y52.919297 
G1 Z-0.200000 F144   
G1 X9.369359 Y52.951178 F200   
G1 X9.535109 Y53.061928 
G1 X9.676069 Y53.202888 
G1 X9.786819 Y53.368637 
G1 X9.863106 Y53.552809 
G1 X9.901997 Y53.748325 
G1 X9.901997 Y55.471672 
G1 X9.863106 Y55.667187 
G1 X9.786819 Y55.851359 
G1 X9.676069 Y56.017109 
G1 X9.535109 Y56.158069 
G1 X9.369359 Y56.268819 
G1 X9.292391 Y56.300700 
G1 X9.424600 Y56.244381 
G1 X9.554481 Y56.150009 
G1 X9.668012 Y56.036481 
G1 X9.762381 Y55.906597 
G1 X9.835266 Y55.763550 
G1 X9.841466 Y55.736809 
G1 X9.852987 Y55.709000 
G1 X9.862300 Y55.680328 
G1 X9.892663 Y55.633578 
G1 X9.918722 Y55.599612 
G1 X9.950525 Y55.570975 
G1 X9.984459 Y55.544934 
G1 X10.022597 Y55.525503 
G1 X10.049431 Y55.511828 
G1 X10.103972 Y55.500234 
G1 X10.133444 Y55.493969 
G1 X10.159266 Y55.492953 
G1 X10.189144 Y55.496887 
G1 X10.219219 Y55.498463 
G1 X10.272237 Y55.515687 
G1 X10.300906 Y55.525000 
G1 X10.347656 Y55.555363 
G1 X10.381622 Y55.581422 
G1 X10.410259 Y55.613225 
G1 X10.436300 Y55.647159 
G1 X10.455737 Y55.685306 
G1 X10.469406 Y55.712131 
G1 X10.565281 Y55.949781 
G1 X10.789322 Y56.173819 
G1 X10.832266 Y56.248203 
G1 X10.854497 Y56.331166 
G1 X10.854497 Y57.264475 
G1 X10.942109 Y57.475991 
G1 X11.180250 Y57.714128 
G1 X12.196597 Y58.730475 
G1 X12.374003 Y58.907884 
G1 X12.585519 Y58.995497 
G1 X16.921244 Y58.995497 
G1 X17.004206 Y59.017728 
G1 X17.078591 Y59.060672 
G1 X17.139322 Y59.121403 
G1 X17.182266 Y59.195788 
G1 X17.204497 Y59.278750 
G1 X17.204497 Y70.261244 
G1 X17.182266 Y70.344206 
G1 X17.139322 Y70.418591 
G1 X17.078591 Y70.479322 
G1 X17.004206 Y70.522266 
G1 X16.921244 Y70.544497 
G1 X15.404919 Y70.544497 
G1 X15.193403 Y70.632109 
G1 X14.989084 Y70.836428 
G1 X13.333825 Y72.491691 
G1 X13.303591 Y72.521925 
G1 X13.269666 Y72.547956 
G1 X13.232631 Y72.569338 
G1 X13.193128 Y72.585700 
G1 X13.151825 Y72.596766 
G1 X13.109434 Y72.602350 
G1 X13.066669 Y72.602350 
G1 X13.024275 Y72.596766 
G1 X12.982981 Y72.585703 
G1 X12.943463 Y72.569334 
G1 X12.623491 Y72.436797 
G1 X12.217703 Y72.436797 
G1 X11.842813 Y72.592081 
G1 X11.555881 Y72.879013 
G1 X11.400597 Y73.253903 
G1 X11.400597 Y75.183691 
G1 X11.555881 Y75.558581 
G1 X11.842809 Y75.845509 
G1 X12.217703 Y76.000797 
G1 X12.623491 Y76.000797 
G1 X12.998381 Y75.845512 
G1 X13.285312 Y75.558581 
G1 X13.440597 Y75.183691 
G1 X13.440597 Y74.104844 
G1 X13.462828 Y74.021881 
G1 X13.505772 Y73.947497 
G1 X13.566503 Y73.886766 
G1 X15.692600 Y71.760672 
G1 X15.766984 Y71.717725 
G1 X15.849947 Y71.695497 
G1 X18.440047 Y71.695497 
G1 X18.523009 Y71.717725 
G1 X18.596447 Y71.760125 
G1 X18.631456 Y71.794737 
G1 X20.723491 Y73.886766 
G1 X20.750156 Y73.913431 
G1 X20.784222 Y73.947497 
G1 X20.827166 Y74.021881 
G1 X20.849397 Y74.104844 
G1 X20.849397 Y75.183691 
G1 X21.004681 Y75.558581 
G1 X21.291612 Y75.845512 
G1 X21.666503 Y76.000797 
G1 X22.072291 Y76.000797 
G1 X22.447181 Y75.845512 
G1 X22.734112 Y75.558581 
G1 X22.889397 Y75.183691 
G1 X22.889397 Y73.253903 
G1 X22.734112 Y72.879013 
G1 X22.447181 Y72.592081 
G1 X22.072291 Y72.436797 
G1 X21.666503 Y72.436797 
G1 X21.346531 Y72.569334 
G1 X21.307012 Y72.585703 
G1 X21.265719 Y72.596766 
G1 X21.223325 Y72.602350 
G1 X21.180559 Y72.602350 
G1 X21.138169 Y72.596769 
G1 X21.096863 Y72.585700 
G1 X21.057362 Y72.569338 
G1 X21.020328 Y72.547956 
G1 X20.986403 Y72.521928 
G1 X20.956166 Y72.491691 
G1 X19.273997 Y70.809519 
G1 X19.096591 Y70.632109 
G1 X18.885075 Y70.544497 
G1 X18.638750 Y70.544497 
G1 X18.555788 Y70.522266 
G1 X18.481403 Y70.479322 
G1 X18.420672 Y70.418591 
G1 X18.377728 Y70.344206 
G1 X18.355497 Y70.261244 
G1 X18.355497 Y59.278750 
G1 X18.377728 Y59.195788 
G1 X18.420672 Y59.121403 
G1 X18.481403 Y59.060672 
G1 X18.555788 Y59.017728 
G1 X18.638750 Y58.995497 
G1 X25.514475 Y58.995497 
G1 X25.725991 Y58.907884 
G1 X26.980475 Y57.653397 
G1 X27.157884 Y57.475991 
G1 X27.245497 Y57.264475 
G1 X27.245497 Y56.331166 
G1 X27.267728 Y56.248203 
G1 X27.310672 Y56.173819 
G1 X27.371403 Y56.113087 
G1 X27.534716 Y55.949778 
G1 X27.627884 Y55.724847 
G1 X27.644281 Y55.685263 
G1 X27.655794 Y55.657463 
G1 X27.689753 Y55.613206 
G1 X27.718366 Y55.581431 
G1 X27.752341 Y55.555363 
G1 X27.788194 Y55.532078 
G1 X27.827772 Y55.515687 
G1 X27.855572 Y55.504169 
G1 X27.910872 Y55.496887 
G1 X27.940728 Y55.492956 
G1 X27.966544 Y55.493972 
G1 X27.996034 Y55.500241 
G1 X28.025881 Y55.504169 
G1 X28.077437 Y55.525525 
G1 X28.105234 Y55.537037 
G1 X28.149491 Y55.570997 
G1 X28.181266 Y55.599609 
G1 X28.207334 Y55.633584 
G1 X28.230619 Y55.669438 
G1 X28.247009 Y55.709016 
G1 X28.258528 Y55.736816 
G1 X28.264728 Y55.763547 
G1 X28.337612 Y55.906597 
G1 X28.431984 Y56.036481 
G1 X28.545513 Y56.150009 
G1 X28.675397 Y56.244381 
G1 X28.807600 Y56.311741 
G1 X28.730638 Y56.268819 
G1 X28.564888 Y56.158069 
G1 X28.423928 Y56.017109 
G1 X28.313178 Y55.851359 
G1 X28.236891 Y55.667187 
G1 X28.198000 Y55.471672 
G1 X28.198000 Y53.748325 
G1 X28.236891 Y53.552809 
G1 X28.313178 Y53.368637 
G1 X28.423928 Y53.202888 
G1 X28.564888 Y53.061928 
G1 X28.730638 Y52.951178 
G1 X28.807600 Y52.919300 
G1 X28.675394 Y52.975612 
G1 X28.545513 Y53.069984 
G1 X28.431981 Y53.183512 
G1 X28.337612 Y53.313397 
G1 X28.264728 Y53.456447 
G1 X28.258528 Y53.483178 
G1 X28.247006 Y53.510994 
G1 X28.237691 Y53.539666 
G1 X28.207325 Y53.586422 
G1 X28.181269 Y53.620381 
G1 X28.149478 Y53.649006 
G1 X28.115519 Y53.675063 
G1 X28.077422 Y53.694475 
G1 X28.050556 Y53.708166 
G1 X27.996019 Y53.719756 
G1 X27.966544 Y53.726022 
G1 X27.940728 Y53.727038 
G1 X27.910856 Y53.723103 
G1 X27.880769 Y53.721528 
G1 X27.827756 Y53.704303 
G1 X27.799084 Y53.694988 
G1 X27.752328 Y53.664622 
G1 X27.718369 Y53.638566 
G1 X27.689744 Y53.606775 
G1 X27.663688 Y53.572816 
G1 X27.644275 Y53.534719 
G1 X27.630584 Y53.507853 
G1 X27.534713 Y53.270216 
G1 X27.310672 Y53.046175 
G1 X27.267728 Y52.971791 
G1 X27.245497 Y52.888828 
G1 X27.245497 Y39.255519 
G1 X27.157884 Y39.044003 
G1 X26.946053 Y38.832175 
G1 X24.831403 Y36.717528 
G1 X24.805097 Y36.691219 
G1 X24.770672 Y36.656797 
G1 X24.727728 Y36.582412 
G1 X24.705497 Y36.499450 
G1 X24.705497 Y29.540547 
G1 X24.727728 Y29.457584 
G1 X24.770672 Y29.383200 
G1 X24.831403 Y29.322469 
G1 X29.697884 Y24.455991 
G1 X29.785497 Y24.244475 
G1 X29.785497 Y21.333047 
G1 X29.807728 Y21.250084 
G1 X29.850672 Y21.175700 
G1 X29.911403 Y21.114969 
G1 X30.268097 Y20.758275 
G1 X30.268097 Y19.881719 
G1 X29.850672 Y19.464294 
G1 X29.807728 Y19.389909 
G1 X29.785497 Y19.306947 
G1 X29.785497 Y12.733250 
G1 X29.807728 Y12.650287 
G1 X29.850672 Y12.575903 
G1 X29.911403 Y12.515172 
G1 X29.985788 Y12.472228 
G1 X30.068750 Y12.449997 
G1 X30.174891 Y12.449997 
G1 X30.549781 Y12.294712 
G1 X30.836713 Y12.007781 
G1 X30.991997 Y11.632891 
G1 X30.991997 Y11.227103 
G1 X30.836713 Y10.852213 
G1 X30.549781 Y10.565281 
G1 X30.324819 Y10.472103 
G1 X30.285306 Y10.455734 
G1 X30.257459 Y10.444203 
G1 X30.213225 Y10.410259 
G1 X30.181425 Y10.381622 
G1 X30.155362 Y10.347656 
G1 X30.132075 Y10.311797 
G1 X30.115687 Y10.272237 
G1 X30.104166 Y10.244425 
G1 X30.096888 Y10.189144 
G1 X30.092953 Y10.159266 
G1 X30.093969 Y10.133444 
G1 X30.100234 Y10.103975 
G1 X30.104166 Y10.074113 
G1 X30.125503 Y10.022597 
G1 X30.137031 Y9.994759 
G1 X30.170975 Y9.950525 
G1 X30.199613 Y9.918725 
G1 X30.233578 Y9.892663 
G1 X30.269437 Y9.869375 
G1 X30.309000 Y9.852987 
G1 X30.336809 Y9.841466 
G1 X30.363544 Y9.835269 
G1 X30.506597 Y9.762381 
G1 X30.636481 Y9.668009 
G1 X30.750009 Y9.554481 
G1 X30.844381 Y9.424597 
G1 X30.911741 Y9.292391 
G1 X30.868819 Y9.369359 
G1 X30.758069 Y9.535109 
G1 X30.617109 Y9.676069 
G1 X30.451359 Y9.786819 
G1 X30.267187 Y9.863106 
G1 X30.071672 Y9.901997 
G1 X28.348325 Y9.901997 
G1 X28.152809 Y9.863106 
G1 X27.968637 Y9.786819 
G1 X27.802888 Y9.676069 
G1 X27.661928 Y9.535109 
G1 X27.551178 Y9.369359 
G1 X27.519297 Y9.292391 
G1 X27.575612 Y9.424600 
G1 X27.669981 Y9.554481 
G1 X27.783513 Y9.668012 
G1 X27.913394 Y9.762381 
G1 X28.056444 Y9.835266 
G1 X28.083184 Y9.841466 
G1 X28.110994 Y9.852987 
G1 X28.139666 Y9.862300 
G1 X28.186416 Y9.892663 
G1 X28.220381 Y9.918725 
G1 X28.249019 Y9.950525 
G1 X28.275056 Y9.984462 
G1 X28.294491 Y10.022597 
G1 X28.308166 Y10.049431 
G1 X28.319759 Y10.103972 
G1 X28.326025 Y10.133444 
G1 X28.327041 Y10.159266 
G1 X28.323106 Y10.189144 
G1 X28.321531 Y10.219219 
G1 X28.304306 Y10.272237 
G1 X28.294994 Y10.300906 
G1 X28.264631 Y10.347656 
G1 X28.238569 Y10.381622 
G1 X28.206769 Y10.410259 
G1 X28.172831 Y10.436297 
G1 X28.134687 Y10.455734 
G1 X28.107862 Y10.469406 
G1 X27.870213 Y10.565281 
G1 X27.583281 Y10.852213 
G1 X27.427997 Y11.227103 
G1 X27.427997 Y11.632891 
G1 X27.583278 Y12.007778 
G1 X27.870213 Y12.294712 
G1 X28.245103 Y12.449997 
G1 X28.351244 Y12.449997 
G1 X28.434206 Y12.472228 
G1 X28.508591 Y12.515172 
G1 X28.569322 Y12.575903 
G1 X28.612266 Y12.650287 
G1 X28.634497 Y12.733250 
G1 X28.634497 Y19.306947 
G1 X28.612266 Y19.389909 
G1 X28.569322 Y19.464294 
G1 X28.508591 Y19.525025 
G1 X28.151897 Y19.881719 
G1 X28.151897 Y20.758275 
G1 X28.569322 Y21.175700 
G1 X28.612266 Y21.250084 
G1 X28.634497 Y21.333047 
G1 X28.634497 Y23.799447 
G1 X28.612266 Y23.882409 
G1 X28.569322 Y23.956794 
G1 X28.508591 Y24.017525 
G1 X23.819519 Y28.706597 
G1 X23.642109 Y28.884003 
G1 X23.554497 Y29.095519 
G1 X23.554497 Y35.971244 
G1 X23.532266 Y36.054206 
G1 X23.489322 Y36.128591 
G1 X23.428591 Y36.189322 
G1 X23.354206 Y36.232266 
G1 X23.271244 Y36.254497 
G1 X22.396431 Y36.254497 
G1 X22.313469 Y36.232266 
G1 X22.239084 Y36.189322 
G1 X22.178353 Y36.128591 
G1 X22.106600 Y36.056838 
G1 X21.771409 Y35.917997 
G1 X21.520441 Y35.917997 
G1 X21.437478 Y35.895766 
G1 X21.363094 Y35.852822 
G1 X21.302363 Y35.792091 
G1 X21.259419 Y35.717706 
G1 X21.237188 Y35.634744 
G1 X21.237188 Y35.548853 
G1 X21.259419 Y35.465891 
G1 X21.302363 Y35.391506 
G1 X21.363094 Y35.330775 
G1 X21.426697 Y35.267172 
G1 X21.501081 Y35.224228 
G1 X21.584044 Y35.201997 
G1 X21.771409 Y35.201997 
G1 X22.106600 Y35.063156 
G1 X22.363159 Y34.806600 
G1 X22.501997 Y34.471409 
G1 X22.501997 Y34.108584 
G1 X22.363159 Y33.773394 
G1 X22.106600 Y33.516834 
G1 X21.771409 Y33.377997 
G1 X21.408584 Y33.377997 
G1 X21.073394 Y33.516834 
G1 X20.816834 Y33.773394 
G1 X20.677997 Y34.108584 
G1 X20.677997 Y34.295950 
G1 X20.655766 Y34.378912 
G1 X20.612822 Y34.453297 
G1 X20.552091 Y34.514028 
G1 X18.739519 Y36.326597 
G1 X18.562109 Y36.504003 
G1 X18.474497 Y36.715516 
G1 X18.474497 Y50.914475 
G1 X18.562109 Y51.125991 
G1 X22.356597 Y54.920475 
G1 X22.534003 Y55.097884 
G1 X22.745519 Y55.185497 
G1 X22.826744 Y55.185497 
G1 X22.909706 Y55.207728 
G1 X22.984091 Y55.250672 
G1 X23.044822 Y55.311403 
G1 X23.087766 Y55.385787 
G1 X23.109997 Y55.468750 
G1 X23.109997 Y55.574891 
G1 X23.265281 Y55.949781 
G1 X23.552212 Y56.236713 
G1 X23.927103 Y56.391997 
G1 X24.332891 Y56.391997 
G1 X24.707781 Y56.236713 
G1 X24.994712 Y55.949781 
G1 X25.115059 Y55.659225 
G1 X25.167347 Y55.591081 
G1 X25.234544 Y55.539525 
G1 X25.314837 Y55.505928 
G1 X25.399991 Y55.494716 
G1 X25.477963 Y55.504984 
G1 X25.564500 Y55.538794 
G1 X25.632644 Y55.591081 
G1 X25.684200 Y55.658278 
G1 X25.717797 Y55.738572 
G1 X25.805281 Y55.949781 
G1 X26.029322 Y56.173819 
G1 X26.072266 Y56.248203 
G1 X26.094497 Y56.331166 
G1 X26.094497 Y56.819447 
G1 X26.072266 Y56.902409 
G1 X26.029322 Y56.976794 
G1 X25.968591 Y57.037525 
G1 X25.226794 Y57.779322 
G1 X25.152409 Y57.822266 
G1 X25.069447 Y57.844497 
G1 X13.030547 Y57.844497 
G1 X12.947584 Y57.822266 
G1 X12.873200 Y57.779322 
G1 X12.812469 Y57.718591 
G1 X12.070672 Y56.976794 
G1 X12.027728 Y56.902409 
G1 X12.005497 Y56.819447 
G1 X12.005497 Y56.331166 
G1 X12.027728 Y56.248203 
G1 X12.070672 Y56.173819 
G1 X12.131403 Y56.113087 
G1 X12.294712 Y55.949781 
G1 X12.382197 Y55.738575 
G1 X12.412891 Y55.664481 
G1 X12.467350 Y55.591081 
G1 X12.520584 Y55.550238 
G1 X12.613231 Y55.506597 
G1 X12.699997 Y55.494716 
G1 X12.777969 Y55.504984 
G1 X12.864506 Y55.538797 
G1 X12.932647 Y55.591081 
G1 X12.973491 Y55.644316 
G1 X13.105281 Y55.949781 
G1 X13.392212 Y56.236713 
G1 X13.767103 Y56.391997 
G1 X14.172891 Y56.391997 
G1 X14.547781 Y56.236713 
G1 X14.834713 Y55.949781 
G1 X14.922197 Y55.738575 
G1 X14.952891 Y55.664481 
G1 X15.007350 Y55.591081 
G1 X15.060584 Y55.550238 
G1 X15.153231 Y55.506597 
G1 X15.239997 Y55.494716 
G1 X15.317969 Y55.504984 
G1 X15.404506 Y55.538797 
G1 X15.472647 Y55.591081 
G1 X15.513491 Y55.644316 
G1 X15.645281 Y55.949781 
G1 X15.932213 Y56.236713 
G1 X16.307103 Y56.391997 
G1 X16.712891 Y56.391997 
G1 X17.087778 Y56.236716 
G1 X17.374713 Y55.949781 
G1 X17.529997 Y55.574891 
G1 X17.529997 Y53.645103 
G1 X17.374713 Y53.270212 
G1 X17.150672 Y53.046175 
G1 X17.107728 Y52.971791 
G1 X17.085497 Y52.888828 
G1 X17.085497 Y34.620547 
G1 X17.107728 Y34.537584 
G1 X17.150672 Y34.463200 
G1 X17.197419 Y34.416456 
G1 X20.090775 Y31.523094 
G1 X20.151506 Y31.462363 
G1 X20.225891 Y31.419419 
G1 X20.308853 Y31.397188 
G1 X20.394744 Y31.397188 
G1 X20.477706 Y31.419419 
G1 X20.552091 Y31.462363 
G1 X20.612822 Y31.523094 
G1 X20.655766 Y31.597478 
G1 X20.677997 Y31.680441 
G1 X20.677997 Y31.931409 
G1 X20.816837 Y32.266600 
G1 X21.073394 Y32.523156 
G1 X21.408584 Y32.661997 
G1 X21.771409 Y32.661997 
G1 X22.106600 Y32.523156 
G1 X22.363156 Y32.266600 
G1 X22.501997 Y31.931409 
G1 X22.501997 Y31.568584 
G1 X22.363156 Y31.233394 
G1 X22.106600 Y30.976837 
G1 X21.771409 Y30.837997 
G1 X21.520431 Y30.837997 
G1 X21.454684 Y30.820375 
G1 X21.363087 Y30.772819 
G1 X21.303303 Y30.713028 
G1 X21.266603 Y30.650147 
G1 X21.249356 Y30.600144 
G1 X21.237188 Y30.554744 
G1 X21.237188 Y30.468844 
G1 X21.254809 Y30.403097 
G1 X21.302366 Y30.311500 
G1 X21.426706 Y30.187166 
G1 X21.490534 Y30.150322 
G1 X21.540537 Y30.133656 
G1 X21.584047 Y30.121997 
G1 X21.771409 Y30.121997 
G1 X22.106600 Y29.983159 
G1 X22.363159 Y29.726600 
G1 X22.501997 Y29.391409 
G1 X22.501997 Y29.028584 
G1 X22.363159 Y28.693394 
G1 X22.106600 Y28.436834 
G1 X21.771409 Y28.297997 
G1 X21.408584 Y28.297997 
G1 X21.073394 Y28.436834 
G1 X20.816834 Y28.693394 
G1 X20.677997 Y29.028584 
G1 X20.677997 Y29.215947 
G1 X20.655766 Y29.298909 
G1 X20.612822 Y29.373294 
G1 X20.552091 Y29.434025 
G1 X16.199519 Y33.786597 
G1 X16.022109 Y33.964003 
G1 X15.934497 Y34.175519 
G1 X15.934497 Y52.888828 
G1 X15.912266 Y52.971791 
G1 X15.869322 Y53.046175 
G1 X15.808591 Y53.106906 
G1 X15.645281 Y53.270212 
G1 X15.524934 Y53.560769 
G1 X15.472647 Y53.628912 
G1 X15.405450 Y53.680469 
G1 X15.325156 Y53.714066 
G1 X15.240003 Y53.725278 
G1 X15.162031 Y53.715013 
G1 X15.075494 Y53.681200 
G1 X15.007350 Y53.628912 
G1 X14.955794 Y53.561716 
G1 X14.922197 Y53.481422 
G1 X14.834713 Y53.270212 
G1 X14.610672 Y53.046175 
G1 X14.567728 Y52.971791 
G1 X14.545497 Y52.888828 
G1 X14.545497 Y33.350547 
G1 X14.567728 Y33.267584 
G1 X14.610672 Y33.193200 
G1 X14.671403 Y33.132469 
G1 X20.493200 Y27.310672 
G1 X20.567584 Y27.267728 
G1 X20.650547 Y27.245497 
G1 X20.783562 Y27.245497 
G1 X20.866525 Y27.267728 
G1 X20.940909 Y27.310672 
G1 X21.001641 Y27.371403 
G1 X21.073394 Y27.443156 
G1 X21.408584 Y27.581997 
G1 X21.771409 Y27.581997 
G1 X22.106600 Y27.443156 
G1 X22.363156 Y27.186600 
G1 X22.501997 Y26.851409 
G1 X22.501997 Y26.488584 
G1 X22.363156 Y26.153394 
G1 X22.106600 Y25.896838 
G1 X21.771409 Y25.757997 
G1 X21.408584 Y25.757997 
G1 X21.073394 Y25.896838 
G1 X20.940909 Y26.029322 
G1 X20.866525 Y26.072266 
G1 X20.783562 Y26.094497 
G1 X20.205519 Y26.094497 
G1 X19.994003 Y26.182109 
G1 X13.659519 Y32.516597 
G1 X13.482109 Y32.694003 
G1 X13.394497 Y32.905519 
G1 X13.394497 Y52.888828 
G1 X13.372266 Y52.971791 
G1 X13.329322 Y53.046175 
G1 X13.268591 Y53.106906 
G1 X13.105281 Y53.270212 
G1 X12.984934 Y53.560769 
G1 X12.932647 Y53.628912 
G1 X12.865450 Y53.680469 
G1 X12.785156 Y53.714066 
G1 X12.700003 Y53.725278 
G1 X12.622031 Y53.715009 
G1 X12.535494 Y53.681200 
G1 X12.467350 Y53.628912 
G1 X12.415794 Y53.561716 
G1 X12.382197 Y53.481422 
G1 X12.294712 Y53.270212 
G1 X12.007781 Y52.983281 
G1 X11.632891 Y52.827997 
G1 X11.227103 Y52.827997 
G1 X10.852213 Y52.983281 
G1 X10.565284 Y53.270209 
G1 X10.472103 Y53.495175 
G1 X10.455737 Y53.534687 
G1 X10.444203 Y53.562534 
G1 X10.410259 Y53.606769 
G1 X10.381625 Y53.638572 
G1 X10.347659 Y53.664631 
G1 X10.311797 Y53.687919 
G1 X10.272241 Y53.704306 
G1 X10.244425 Y53.715828 
G1 X10.189144 Y53.723106 
G1 X10.159266 Y53.727041 
G1 X10.133444 Y53.726025 
G1 X10.103972 Y53.719759 
G1 X10.074113 Y53.715828 
G1 X10.022597 Y53.694491 
G1 X9.994759 Y53.682963 
G1 X9.950525 Y53.649019 
G1 X9.918722 Y53.620384 
G1 X9.892663 Y53.586419 
G1 X9.869375 Y53.550556 
G1 X9.852987 Y53.510994 
G1 X9.841466 Y53.483184 
G1 X9.835263 Y53.456444 
G1 X9.762381 Y53.313397 
G1 X9.668009 Y53.183512 
G1 X9.554481 Y53.069981 
G1 X9.424597 Y52.975612 
G1 X9.292391 Y52.908253 
G0 Z1.000000 
G0 X10.643928 Y53.202888 
G1 Z-0.200000 F144   
G1 X10.784887 Y53.061928 F200   
G1 X10.950637 Y52.951178 
G1 X11.134809 Y52.874891 
G1 X11.330325 Y52.836000 
G1 X11.529672 Y52.836000 
G1 X11.725188 Y52.874891 
G1 X11.909359 Y52.951178 
G1 X12.075109 Y53.061928 
G1 X12.216069 Y53.202888 
G1 X12.326819 Y53.368637 
G1 X12.403106 Y53.552809 
G1 X12.441997 Y53.748325 
G1 X12.441997 Y55.471672 
G1 X12.403106 Y55.667187 
G1 X12.326819 Y55.851359 
G1 X12.216069 Y56.017109 
G1 X12.075109 Y56.158069 
G1 X11.997497 Y56.209928 
G1 X11.997497 Y56.914934 
G1 X12.935063 Y57.852500 
G1 X25.164934 Y57.852500 
G1 X26.102500 Y56.914934 
G1 X26.102500 Y56.209925 
G1 X26.024887 Y56.158069 
G1 X25.883928 Y56.017109 
G1 X25.773178 Y55.851359 
G1 X25.696891 Y55.667187 
G1 X25.658000 Y55.471672 
G1 X25.658000 Y53.748325 
G1 X25.696891 Y53.552809 
G1 X25.773178 Y53.368637 
G1 X25.883928 Y53.202888 
G1 X26.024887 Y53.061928 
G1 X26.102500 Y53.010072 
G1 X26.102500 Y39.605063 
G1 X23.894934 Y37.397497 
G1 X22.298037 Y37.397497 
G1 X22.166266 Y37.532181 
G1 X22.018203 Y37.631113 
G1 X21.853687 Y37.699256 
G1 X21.679034 Y37.733997 
G1 X21.500962 Y37.733997 
G1 X21.326309 Y37.699256 
G1 X21.161794 Y37.631113 
G1 X21.013731 Y37.532181 
G1 X20.887816 Y37.406266 
G1 X20.788884 Y37.258203 
G1 X20.720741 Y37.093688 
G1 X20.686000 Y36.919034 
G1 X20.686000 Y36.740963 
G1 X20.720741 Y36.566309 
G1 X20.788884 Y36.401794 
G1 X20.887816 Y36.253731 
G1 X21.013731 Y36.127816 
G1 X21.161794 Y36.028884 
G1 X21.326309 Y35.960741 
G1 X21.500962 Y35.926000 
G1 X21.679034 Y35.926000 
G1 X21.853687 Y35.960741 
G1 X22.018203 Y36.028884 
G1 X22.166266 Y36.127816 
G1 X22.292181 Y36.253731 
G1 X23.562500 Y36.262500 
G1 X23.562500 Y29.135284 
G1 X23.601175 Y28.990950 
G1 X23.675888 Y28.861547 
G1 X23.781547 Y28.755888 
G1 X28.642500 Y23.894938 
G1 X28.642500 Y21.237559 
G1 X28.159900 Y20.754963 
G1 X28.159900 Y19.885034 
G1 X28.642500 Y19.402438 
G1 X28.642500 Y12.441997 
G1 X28.348325 Y12.441997 
G1 X28.152809 Y12.403106 
G1 X27.968637 Y12.326819 
G1 X27.802888 Y12.216069 
G1 X27.661928 Y12.075109 
G1 X27.551178 Y11.909359 
G1 X27.474891 Y11.725188 
G1 X27.436000 Y11.529672 
G1 X27.436000 Y11.330325 
G1 X27.474891 Y11.134809 
G1 X27.551178 Y10.950637 
G1 X27.661928 Y10.784887 
G1 X27.802888 Y10.643928 
G1 X27.968637 Y10.533178 
G1 X28.152809 Y10.456891 
G1 X28.348325 Y10.418000 
G1 X30.071672 Y10.418000 
G1 X30.267187 Y10.456891 
G1 X30.451359 Y10.533178 
G1 X30.617109 Y10.643928 
G1 X30.758069 Y10.784887 
G1 X30.868819 Y10.950637 
G1 X30.945106 Y11.134809 
G1 X30.983997 Y11.330325 
G1 X30.983997 Y11.529672 
G1 X30.945106 Y11.725188 
G1 X30.868819 Y11.909359 
G1 X30.758069 Y12.075109 
G1 X30.617109 Y12.216069 
G1 X30.451359 Y12.326819 
G1 X30.267187 Y12.403106 
G1 X30.071672 Y12.441997 
G1 X29.777497 Y12.441997 
G1 X29.777497 Y19.402438 
G1 X30.260097 Y19.885034 
G1 X30.260097 Y20.754963 
G1 X29.777497 Y21.237559 
G1 X29.777497 Y24.204712 
G1 X29.738822 Y24.349047 
G1 X29.664109 Y24.478450 
G1 X29.558450 Y24.584109 
G1 X24.697497 Y29.445059 
G1 X24.697497 Y36.594934 
G1 X27.018450 Y38.915887 
G1 X27.124109 Y39.021547 
G1 X27.198822 Y39.150950 
G1 X27.237497 Y39.295284 
G1 X27.237497 Y53.010072 
G1 X27.315109 Y53.061928 
G1 X27.456069 Y53.202888 
G1 X27.566819 Y53.368637 
G1 X27.643106 Y53.552809 
G1 X27.681997 Y53.748325 
G1 X27.681997 Y55.471672 
G1 X27.643106 Y55.667187 
G1 X27.566819 Y55.851359 
G1 X27.456069 Y56.017109 
G1 X27.315109 Y56.158069 
G1 X27.237497 Y56.209925 
G1 X27.237497 Y57.224713 
G1 X27.198822 Y57.369047 
G1 X27.124109 Y57.498450 
G1 X27.018450 Y57.604109 
G1 X25.748450 Y58.874109 
G1 X25.619047 Y58.948822 
G1 X25.474712 Y58.987497 
G1 X18.347497 Y58.987497 
G1 X18.347497 Y70.552500 
G1 X18.845312 Y70.552500 
G1 X18.989647 Y70.591175 
G1 X19.119050 Y70.665887 
G1 X19.224709 Y70.771547 
G1 X21.174091 Y72.720928 
G1 X21.224287 Y72.670728 
G1 X21.390037 Y72.559978 
G1 X21.574209 Y72.483691 
G1 X21.769725 Y72.444800 
G1 X21.969072 Y72.444800 
G1 X22.164587 Y72.483691 
G1 X22.348759 Y72.559978 
G1 X22.514509 Y72.670728 
G1 X22.655469 Y72.811688 
G1 X22.766219 Y72.977437 
G1 X22.842506 Y73.161609 
G1 X22.881397 Y73.357125 
G1 X22.881397 Y75.080472 
G1 X22.842506 Y75.275987 
G1 X22.766219 Y75.460159 
G1 X22.655469 Y75.625909 
G1 X22.514509 Y75.766869 
G1 X22.348759 Y75.877619 
G1 X22.164587 Y75.953906 
G1 X21.969072 Y75.992797 
G1 X21.769725 Y75.992797 
G1 X21.574209 Y75.953906 
G1 X21.390037 Y75.877619 
G1 X21.224287 Y75.766869 
G1 X21.083328 Y75.625909 
G1 X20.972578 Y75.460159 
G1 X20.896291 Y75.275987 
G1 X20.857400 Y75.080472 
G1 X20.857400 Y74.009362 
G1 X18.535534 Y71.687497 
G1 X15.754463 Y71.687497 
G1 X13.432597 Y74.009362 
G1 X13.432597 Y75.080472 
G1 X13.393706 Y75.275987 
G1 X13.317419 Y75.460159 
G1 X13.206669 Y75.625909 
G1 X13.065709 Y75.766869 
G1 X12.899959 Y75.877619 
G1 X12.715787 Y75.953906 
G1 X12.520272 Y75.992797 
G1 X12.320925 Y75.992797 
G1 X12.125409 Y75.953906 
G1 X11.941237 Y75.877619 
G1 X11.775488 Y75.766869 
G1 X11.634528 Y75.625909 
G1 X11.523778 Y75.460159 
G1 X11.447491 Y75.275987 
G1 X11.408600 Y75.080472 
G1 X11.408600 Y73.357125 
G1 X11.447491 Y73.161609 
G1 X11.523778 Y72.977437 
G1 X11.634528 Y72.811688 
G1 X11.775488 Y72.670728 
G1 X11.941237 Y72.559978 
G1 X12.125409 Y72.483691 
G1 X12.320925 Y72.444800 
G1 X12.520272 Y72.444800 
G1 X12.715787 Y72.483691 
G1 X12.899959 Y72.559978 
G1 X13.065709 Y72.670728 
G1 X13.115906 Y72.720928 
G1 X15.065288 Y70.771547 
G1 X15.170947 Y70.665887 
G1 X15.300350 Y70.591175 
G1 X15.444684 Y70.552500 
G1 X17.212500 Y70.552500 
G1 X17.212500 Y58.987497 
G1 X12.625284 Y58.987497 
G1 X12.480950 Y58.948822 
G1 X12.351547 Y58.874109 
G1 X12.245888 Y58.768450 
G1 X11.081547 Y57.604109 
G1 X10.975888 Y57.498450 
G1 X10.901175 Y57.369047 
G1 X10.862500 Y57.224713 
G1 X10.862500 Y56.209928 
G1 X10.784887 Y56.158069 
G1 X10.643928 Y56.017109 
G1 X10.533178 Y55.851359 
G1 X10.456891 Y55.667187 
G1 X10.418000 Y55.471672 
G1 X10.418000 Y53.748325 
G1 X10.456891 Y53.552809 
G1 X10.533178 Y53.368637 
G1 X10.643928 Y53.202888 
G0 Z1.000000 
G0 X13.183928 Y53.202888 
G1 Z-0.200000 F144   
G1 X13.324888 Y53.061928 F200   
G1 X13.402500 Y53.010069 
G1 X13.402500 Y32.945284 
G1 X13.441175 Y32.800950 
G1 X13.515887 Y32.671547 
G1 X13.621547 Y32.565888 
G1 X19.971547 Y26.215888 
G1 X20.100950 Y26.141175 
G1 X20.245284 Y26.102500 
G1 X20.881959 Y26.102500 
G1 X21.013731 Y25.967816 
G1 X21.161794 Y25.868884 
G1 X21.326309 Y25.800741 
G1 X21.500962 Y25.766000 
G1 X21.679034 Y25.766000 
G1 X21.853687 Y25.800741 
G1 X22.018203 Y25.868884 
G1 X22.166266 Y25.967816 
G1 X22.292181 Y26.093731 
G1 X22.391112 Y26.241794 
G1 X22.459256 Y26.406309 
G1 X22.493997 Y26.580962 
G1 X22.493997 Y26.759034 
G1 X22.459256 Y26.933688 
G1 X22.391112 Y27.098203 
G1 X22.292181 Y27.246266 
G1 X22.166266 Y27.372181 
G1 X22.018203 Y27.471113 
G1 X21.853687 Y27.539256 
G1 X21.679034 Y27.573997 
G1 X21.500962 Y27.573997 
G1 X21.326309 Y27.539256 
G1 X21.161794 Y27.471113 
G1 X21.013731 Y27.372181 
G1 X20.887816 Y27.246266 
G1 X20.555062 Y27.237497 
G1 X14.537497 Y33.255063 
G1 X14.537497 Y53.010069 
G1 X14.615109 Y53.061928 
G1 X14.756069 Y53.202888 
G1 X14.866819 Y53.368637 
G1 X14.943106 Y53.552809 
G1 X14.981997 Y53.748325 
G1 X14.981997 Y55.471672 
G1 X14.943106 Y55.667187 
G1 X14.866819 Y55.851359 
G1 X14.756069 Y56.017109 
G1 X14.615109 Y56.158069 
G1 X14.449359 Y56.268819 
G1 X14.265187 Y56.345106 
G1 X14.069672 Y56.383997 
G1 X13.870325 Y56.383997 
G1 X13.674809 Y56.345106 
G1 X13.490638 Y56.268819 
G1 X13.324888 Y56.158069 
G1 X13.183928 Y56.017109 
G1 X13.073178 Y55.851359 
G1 X12.996891 Y55.667187 
G1 X12.958000 Y55.471672 
G1 X12.958000 Y53.748325 
G1 X12.996891 Y53.552809 
G1 X13.073178 Y53.368637 
G1 X13.183928 Y53.202888 
G0 Z1.000000 
G0 X15.723928 Y53.202888 
G1 Z-0.200000 F144   
G1 X15.864888 Y53.061928 F200   
G1 X15.942500 Y53.010069 
G1 X15.942500 Y34.215284 
G1 X15.981175 Y34.070950 
G1 X16.055888 Y33.941547 
G1 X16.161547 Y33.835887 
G1 X20.688059 Y29.309378 
G1 X20.686000 Y29.120963 
G1 X20.720741 Y28.946309 
G1 X20.788884 Y28.781794 
G1 X20.887816 Y28.633731 
G1 X21.013731 Y28.507816 
G1 X21.161794 Y28.408884 
G1 X21.326309 Y28.340741 
G1 X21.500962 Y28.306000 
G1 X21.679034 Y28.306000 
G1 X21.853687 Y28.340741 
G1 X22.018203 Y28.408884 
G1 X22.166266 Y28.507816 
G1 X22.292181 Y28.633731 
G1 X22.391112 Y28.781794 
G1 X22.459256 Y28.946309 
G1 X22.493997 Y29.120963 
G1 X22.493997 Y29.299034 
G1 X22.459256 Y29.473688 
G1 X22.391112 Y29.638203 
G1 X22.292181 Y29.786266 
G1 X22.166266 Y29.912181 
G1 X22.018203 Y30.011112 
G1 X21.853687 Y30.079256 
G1 X21.679034 Y30.113997 
G1 X21.500962 Y30.113997 
G1 X17.077497 Y34.525062 
G1 X17.077497 Y53.010069 
G1 X17.155109 Y53.061928 
G1 X17.296069 Y53.202888 
G1 X17.406819 Y53.368637 
G1 X17.483106 Y53.552809 
G1 X17.521997 Y53.748325 
G1 X17.521997 Y55.471672 
G1 X17.483106 Y55.667187 
G1 X17.406819 Y55.851359 
G1 X17.296069 Y56.017109 
G1 X17.155109 Y56.158069 
G1 X16.989359 Y56.268819 
G1 X16.805187 Y56.345106 
G1 X16.609672 Y56.383997 
G1 X16.410325 Y56.383997 
G1 X16.214809 Y56.345106 
G1 X16.030638 Y56.268819 
G1 X15.864888 Y56.158069 
G1 X15.723928 Y56.017109 
G1 X15.613178 Y55.851359 
G1 X15.536891 Y55.667187 
G1 X15.498000 Y55.471672 
G1 X15.498000 Y53.748325 
G1 X15.536891 Y53.552809 
G1 X15.613178 Y53.368637 
G1 X15.723928 Y53.202888 
G0 Z1.000000 
G0 X18.595887 Y51.148450 
G1 Z-0.200000 F144   
G1 X18.521175 Y51.019047 F200   
G1 X18.482500 Y50.874713 
G1 X18.482500 Y36.755284 
G1 X18.521175 Y36.610950 
G1 X18.595887 Y36.481547 
G1 X18.701547 Y36.375887 
G1 X20.688059 Y34.389378 
G1 X20.686000 Y34.200963 
G1 X20.720741 Y34.026309 
G1 X20.788884 Y33.861794 
G1 X20.887816 Y33.713731 
G1 X21.013731 Y33.587816 
G1 X21.161794 Y33.488884 
G1 X21.326309 Y33.420741 
G1 X21.500962 Y33.386000 
G1 X21.679034 Y33.386000 
G1 X21.853687 Y33.420741 
G1 X22.018203 Y33.488884 
G1 X22.166266 Y33.587816 
G1 X22.292181 Y33.713731 
G1 X22.391112 Y33.861794 
G1 X22.459256 Y34.026309 
G1 X22.493997 Y34.200963 
G1 X22.493997 Y34.379034 
G1 X22.459256 Y34.553688 
G1 X22.391112 Y34.718203 
G1 X22.292181 Y34.866266 
G1 X22.166266 Y34.992181 
G1 X22.018203 Y35.091113 
G1 X21.853687 Y35.159256 
G1 X21.679034 Y35.193997 
G1 X21.500962 Y35.193997 
G1 X19.617497 Y37.065063 
G1 X19.617497 Y50.564934 
G1 X23.095063 Y54.042500 
G1 X23.118000 Y53.748325 
G1 X23.156891 Y53.552809 
G1 X23.233178 Y53.368637 
G1 X23.343928 Y53.202888 
G1 X23.484887 Y53.061928 
G1 X23.650637 Y52.951178 
G1 X23.834809 Y52.874891 
G1 X24.030325 Y52.836000 
G1 X24.229672 Y52.836000 
G1 X24.425187 Y52.874891 
G1 X24.609359 Y52.951178 
G1 X24.775109 Y53.061928 
G1 X24.916069 Y53.202888 
G1 X25.026819 Y53.368637 
G1 X25.103106 Y53.552809 
G1 X25.141997 Y53.748325 
G1 X25.141997 Y55.471672 
G1 X25.103106 Y55.667187 
G1 X25.026819 Y55.851359 
G1 X24.916069 Y56.017109 
G1 X24.775109 Y56.158069 
G1 X24.609359 Y56.268819 
G1 X24.425187 Y56.345106 
G1 X24.229672 Y56.383997 
G1 X24.030325 Y56.383997 
G1 X23.834809 Y56.345106 
G1 X23.650637 Y56.268819 
G1 X23.484887 Y56.158069 
G1 X23.343928 Y56.017109 
G1 X23.233178 Y55.851359 
G1 X23.156891 Y55.667187 
G1 X23.118000 Y55.471672 
G1 X23.118000 Y55.177497 
G1 X22.785284 Y55.177497 
G1 X22.640950 Y55.138822 
G1 X22.511547 Y55.064109 
G1 X22.405887 Y54.958450 
G1 X18.595887 Y51.148450 
G0 Z1.000000 
G0 X19.690672 Y50.626794 
G1 Z-0.200000 F144   
G1 X19.647728 Y50.552409 F200   
G1 X19.625497 Y50.469447 
G1 X19.625497 Y48.110584 
G1 X19.647728 Y48.027622 
G1 X19.689725 Y47.954881 
G1 X19.751403 Y47.892509 
G1 X19.779231 Y47.876444 
G1 X19.825788 Y47.849562 
G1 X19.907806 Y47.827587 
G1 X19.994644 Y47.827334 
G1 X20.077606 Y47.849566 
G1 X20.150347 Y47.891562 
G1 X20.212719 Y47.953241 
G1 X20.652513 Y48.393041 
G1 X21.260794 Y48.644997 
G1 X21.919200 Y48.644997 
G1 X22.527478 Y48.393041 
G1 X22.993041 Y47.927478 
G1 X23.244997 Y47.319200 
G1 X23.244997 Y46.660794 
G1 X22.993041 Y46.052516 
G1 X22.527484 Y45.586956 
G1 X22.443409 Y45.552131 
G1 X22.403903 Y45.535769 
G1 X22.366866 Y45.514384 
G1 X22.332953 Y45.488363 
G1 X22.302703 Y45.458109 
G1 X22.276688 Y45.424206 
G1 X22.255297 Y45.387159 
G1 X22.238937 Y45.347669 
G1 X22.227869 Y45.306347 
G1 X22.222288 Y45.263969 
G1 X22.222288 Y45.221197 
G1 X22.227869 Y45.178812 
G1 X22.238937 Y45.137503 
G1 X22.255300 Y45.098000 
G1 X22.276684 Y45.060963 
G1 X22.302706 Y45.027050 
G1 X22.332956 Y44.996800 
G1 X22.363156 Y44.966600 
G1 X22.501997 Y44.631409 
G1 X22.501997 Y44.268584 
G1 X22.363156 Y43.933394 
G1 X22.106600 Y43.676837 
G1 X21.771409 Y43.537997 
G1 X21.408584 Y43.537997 
G1 X21.073394 Y43.676837 
G1 X20.816837 Y43.933394 
G1 X20.677997 Y44.268584 
G1 X20.677997 Y44.631409 
G1 X20.816837 Y44.966600 
G1 X20.847037 Y44.996800 
G1 X20.877288 Y45.027050 
G1 X20.903309 Y45.060963 
G1 X20.924694 Y45.098000 
G1 X20.941056 Y45.137503 
G1 X20.952125 Y45.178809 
G1 X20.957706 Y45.221197 
G1 X20.957706 Y45.263969 
G1 X20.952125 Y45.306347 
G1 X20.941056 Y45.347669 
G1 X20.924697 Y45.387159 
G1 X20.903306 Y45.424206 
G1 X20.877291 Y45.458112 
G1 X20.847041 Y45.488363 
G1 X20.813128 Y45.514384 
G1 X20.776094 Y45.535769 
G1 X20.736584 Y45.552131 
G1 X20.652506 Y45.586959 
G1 X20.212719 Y46.026750 
G1 X20.156478 Y46.082991 
G1 X20.077606 Y46.130428 
G1 X19.994644 Y46.152659 
G1 X19.908750 Y46.152659 
G1 X19.825788 Y46.130431 
G1 X19.778031 Y46.102856 
G1 X19.751403 Y46.087484 
G1 X19.691619 Y46.027697 
G1 X19.647728 Y45.952372 
G1 X19.625497 Y45.869409 
G1 X19.625497 Y37.160547 
G1 X19.647725 Y37.077584 
G1 X19.674606 Y37.031028 
G1 X19.690672 Y37.003200 
G1 X19.751403 Y36.942469 
G1 X20.090775 Y36.603097 
G1 X20.147919 Y36.545953 
G1 X20.225887 Y36.499419 
G1 X20.308850 Y36.477187 
G1 X20.394744 Y36.477187 
G1 X20.477706 Y36.499416 
G1 X20.525462 Y36.526991 
G1 X20.552091 Y36.542363 
G1 X20.611875 Y36.602150 
G1 X20.655766 Y36.677475 
G1 X20.677997 Y36.760438 
G1 X20.677997 Y37.011409 
G1 X20.816837 Y37.346600 
G1 X21.073394 Y37.603159 
G1 X21.408584 Y37.741997 
G1 X21.771409 Y37.741997 
G1 X22.106600 Y37.603159 
G1 X22.239084 Y37.470672 
G1 X22.313469 Y37.427728 
G1 X22.396431 Y37.405497 
G1 X23.799447 Y37.405497 
G1 X23.882409 Y37.427728 
G1 X23.956794 Y37.470672 
G1 X24.017525 Y37.531403 
G1 X26.029322 Y39.543200 
G1 X26.072266 Y39.617584 
G1 X26.094497 Y39.700547 
G1 X26.094497 Y52.888828 
G1 X26.072266 Y52.971791 
G1 X26.029322 Y53.046175 
G1 X25.968591 Y53.106906 
G1 X25.805281 Y53.270212 
G1 X25.717797 Y53.481419 
G1 X25.687103 Y53.555512 
G1 X25.632644 Y53.628912 
G1 X25.579409 Y53.669756 
G1 X25.486763 Y53.713397 
G1 X25.399997 Y53.725278 
G1 X25.322025 Y53.715009 
G1 X25.235488 Y53.681197 
G1 X25.167347 Y53.628912 
G1 X25.126503 Y53.575678 
G1 X24.994712 Y53.270212 
G1 X24.707781 Y52.983281 
G1 X24.332891 Y52.827997 
G1 X23.927103 Y52.827997 
G1 X23.552212 Y52.983281 
G1 X23.265281 Y53.270212 
G1 X23.187547 Y53.457887 
G1 X23.171184 Y53.497388 
G1 X23.149809 Y53.534416 
G1 X23.123759 Y53.568359 
G1 X23.093553 Y53.598566 
G1 X23.059603 Y53.624619 
G1 X23.022584 Y53.645991 
G1 X22.983075 Y53.662356 
G1 X22.941778 Y53.673422 
G1 X22.899375 Y53.679006 
G1 X22.856628 Y53.679006 
G1 X22.814216 Y53.673422 
G1 X22.772925 Y53.662356 
G1 X22.733419 Y53.645994 
G1 X22.696391 Y53.624619 
G1 X22.662447 Y53.598569 
G1 X22.632241 Y53.568362 
G1 X19.690672 Y50.626794 
G0 Z1.000000 
G0 X21.013731 Y45.152181 
G1 Z-0.200000 F144   
G1 X20.887816 Y45.026266 F200   
G1 X20.788884 Y44.878203 
G1 X20.720741 Y44.713687 
G1 X20.686000 Y44.539034 
G1 X20.686000 Y44.360962 
G1 X20.720741 Y44.186309 
G1 X20.788884 Y44.021794 
G1 X20.887816 Y43.873731 
G1 X21.013731 Y43.747816 
G1 X21.161794 Y43.648884 
G1 X21.326309 Y43.580741 
G1 X21.500962 Y43.546000 
G1 X21.679034 Y43.546000 
G1 X21.853687 Y43.580741 
G1 X22.018203 Y43.648884 
G1 X22.166266 Y43.747816 
G1 X22.292181 Y43.873731 
G1 X22.391112 Y44.021794 
G1 X22.459256 Y44.186309 
G1 X22.493997 Y44.360962 
G1 X22.493997 Y44.539034 
G1 X22.459256 Y44.713687 
G1 X22.391112 Y44.878203 
G1 X22.292181 Y45.026266 
G1 X22.166266 Y45.152181 
G1 X22.018203 Y45.251112 
G1 X21.853687 Y45.319256 
G1 X21.679034 Y45.353997 
G1 X21.500962 Y45.353997 
G1 X21.326309 Y45.319256 
G1 X21.161794 Y45.251112 
G1 X21.013731 Y45.152181 
G0 Z1.000000 
G0 X21.013731 Y42.612181 
G1 Z-0.200000 F144   
G1 X20.887816 Y42.486266 F200   
G1 X20.788884 Y42.338203 
G1 X20.778194 Y42.312391 
G1 X20.809987 Y42.387994 
G1 X20.894362 Y42.504125 
G1 X20.995869 Y42.605634 
G1 X21.112003 Y42.690006 
G1 X21.187600 Y42.728528 
G1 X21.161794 Y42.711112 
G1 X21.013731 Y42.612181 
G0 Z1.000000 
G0 X21.992391 Y42.721803 
G1 Z-0.200000 F144   
G1 X21.992391 Y42.728528 F200   
G1 X22.067994 Y42.690006 
G1 X22.184125 Y42.605634 
G1 X22.285628 Y42.504131 
G1 X22.370006 Y42.387991 
G1 X22.408528 Y42.312391 
G1 X22.391112 Y42.338203 
G1 X22.292181 Y42.486266 
G1 X22.166266 Y42.612181 
G1 X22.018203 Y42.711112 
G1 X21.992391 Y42.721803 
G0 Z1.000000 
G0 X21.992391 Y41.098194 
G1 Z-0.200000 F144   
G1 X22.018203 Y41.108884 F200   
G1 X22.166266 Y41.207816 
G1 X22.292181 Y41.333731 
G1 X22.391112 Y41.481794 
G1 X22.401800 Y41.507600 
G1 X22.370006 Y41.432000 
G1 X22.285631 Y41.315869 
G1 X22.184125 Y41.214363 
G1 X22.067991 Y41.129987 
G1 X21.992391 Y41.091466 
G0 Z1.000000 
G0 X21.187600 Y41.098197 
G1 Z-0.200000 F144   
G1 X21.187600 Y41.091466 F200   
G1 X21.112003 Y41.129987 
G1 X20.995869 Y41.214363 
G1 X20.894362 Y41.315869 
G1 X20.809987 Y41.432003 
G1 X20.771466 Y41.507600 
G1 X20.788884 Y41.481794 
G1 X20.887816 Y41.333731 
G1 X21.013731 Y41.207816 
G1 X21.161794 Y41.108884 
G1 X21.187600 Y41.098197 
G0 Z1.000000 
G0 X21.161794 Y40.171112 
G1 Z-0.200000 F144   
G1 X21.013731 Y40.072181 F200   
G1 X20.887816 Y39.946266 
G1 X20.788884 Y39.798203 
G1 X20.720741 Y39.633688 
G1 X20.686000 Y39.459034 
G1 X20.686000 Y39.280963 
G1 X20.720741 Y39.106309 
G1 X20.788884 Y38.941794 
G1 X20.887816 Y38.793731 
G1 X21.013731 Y38.667816 
G1 X21.161794 Y38.568884 
G1 X21.326309 Y38.500741 
G1 X21.500962 Y38.466000 
G1 X21.679034 Y38.466000 
G1 X21.853687 Y38.500741 
G1 X22.018203 Y38.568884 
G1 X22.166266 Y38.667816 
G1 X22.292181 Y38.793731 
G1 X22.391112 Y38.941794 
G1 X22.459256 Y39.106309 
G1 X22.493997 Y39.280963 
G1 X22.493997 Y39.459034 
G1 X22.459256 Y39.633688 
G1 X22.391112 Y39.798203 
G1 X22.292181 Y39.946266 
G1 X22.166266 Y40.072181 
G1 X22.018203 Y40.171112 
G1 X21.853687 Y40.239256 
G1 X21.679034 Y40.273997 
G1 X21.500962 Y40.273997 
G1 X21.326309 Y40.239256 
G1 X21.161794 Y40.171112 
G0 Z1.000000 
G0 X21.073394 Y40.143159 
G1 Z-0.200000 F144   
G1 X21.408584 Y40.281997 F200   
G1 X21.771409 Y40.281997 
G1 X22.106597 Y40.143159 
G1 X22.363156 Y39.886600 
G1 X22.501997 Y39.551409 
G1 X22.501997 Y39.188581 
G1 X22.363159 Y38.853394 
G1 X22.106600 Y38.596834 
G1 X21.771409 Y38.457997 
G1 X21.408584 Y38.457997 
G1 X21.073394 Y38.596834 
G1 X20.816834 Y38.853394 
G1 X20.677997 Y39.188584 
G1 X20.677997 Y39.551409 
G1 X20.816834 Y39.886600 
G1 X21.073394 Y40.143159 
G0 Z1.000000 
G0 X21.161794 Y32.551113 
G1 Z-0.200000 F144   
G1 X21.013731 Y32.452181 F200   
G1 X20.887816 Y32.326266 
G1 X20.788884 Y32.178203 
G1 X20.720741 Y32.013688 
G1 X20.686000 Y31.839034 
G1 X20.686000 Y31.660963 
G1 X20.720741 Y31.486309 
G1 X20.788884 Y31.321794 
G1 X20.887816 Y31.173731 
G1 X21.013731 Y31.047816 
G1 X21.161794 Y30.948884 
G1 X21.326309 Y30.880741 
G1 X21.500962 Y30.846000 
G1 X21.679034 Y30.846000 
G1 X21.853687 Y30.880741 
G1 X22.018203 Y30.948884 
G1 X22.166266 Y31.047816 
G1 X22.292181 Y31.173731 
G1 X22.391112 Y31.321794 
G1 X22.459256 Y31.486309 
G1 X22.493997 Y31.660963 
G1 X22.493997 Y31.839034 
G1 X22.459256 Y32.013688 
G1 X22.391112 Y32.178203 
G1 X22.292181 Y32.326266 
G1 X22.166266 Y32.452181 
G1 X22.018203 Y32.551113 
G1 X21.853687 Y32.619256 
G1 X21.679034 Y32.653997 
G1 X21.500962 Y32.653997 
G1 X21.326309 Y32.619256 
G1 X21.161794 Y32.551113 
G0 Z1.000000 
G0 X28.151897 Y32.188275 
G1 Z-0.200000 F144   
G1 X28.771719 Y32.808097 F200   
G1 X28.807600 Y32.808097 
G1 X28.775034 Y32.800097 
G1 X28.159900 Y32.184962 
G1 X28.159900 Y32.152391 
G1 X28.151897 Y32.188275 
G0 Z1.000000 
G0 X28.151897 Y31.347600 
G1 Z-0.200000 F144   
G1 X28.159900 Y31.347600 F200   
G1 X28.159900 Y31.315034 
G1 X28.775034 Y30.699900 
G1 X28.807600 Y30.699900 
G1 X28.771719 Y30.691894 
G1 X28.151897 Y31.311719 
G1 X28.151897 Y31.347600 
G0 Z1.000000 
G0 X29.612391 Y30.699900 
G1 Z-0.200000 F144   
G1 X29.644962 Y30.699900 F200   
G1 X30.260097 Y31.315034 
G1 X30.260097 Y31.347600 
G1 X30.268097 Y31.311719 
G1 X29.648275 Y30.691897 
G1 X29.612391 Y30.691897 
G0 Z1.000000 
G0 X29.612391 Y32.800097 
G1 Z-0.200000 F144   
G1 X29.612391 Y32.808097 F200   
G1 X29.648275 Y32.808097 
G1 X30.268097 Y32.188275 
G1 X30.268097 Y32.152391 
G1 X30.260097 Y32.184962 
G1 X29.644962 Y32.800097 
G1 X29.612391 Y32.800097 
G0 Z1.000000 
G0 X33.714497 Y32.763047 
G1 Z-0.200000 F144   
G1 X33.714497 Y42.728828 F200   
G1 X33.692266 Y42.811791 
G1 X33.649322 Y42.886175 
G1 X33.588591 Y42.946906 
G1 X33.425278 Y43.110216 
G1 X33.332106 Y43.335153 
G1 X33.315719 Y43.374719 
G1 X33.304200 Y43.402531 
G1 X33.270250 Y43.446775 
G1 X33.241625 Y43.478566 
G1 X33.207666 Y43.504622 
G1 X33.171794 Y43.527916 
G1 X33.132238 Y43.544303 
G1 X33.104422 Y43.555825 
G1 X33.049138 Y43.563103 
G1 X33.019269 Y43.567037 
G1 X32.993450 Y43.566022 
G1 X32.963975 Y43.559756 
G1 X32.934112 Y43.555825 
G1 X32.882572 Y43.534475 
G1 X32.854759 Y43.522956 
G1 X32.810516 Y43.489006 
G1 X32.778725 Y43.460381 
G1 X32.752669 Y43.426422 
G1 X32.729375 Y43.390550 
G1 X32.712991 Y43.350994 
G1 X32.701466 Y43.323178 
G1 X32.695266 Y43.296444 
G1 X32.622384 Y43.153403 
G1 X32.528009 Y43.023513 
G1 X32.414481 Y42.909984 
G1 X32.284597 Y42.815613 
G1 X32.152391 Y42.748253 
G1 X32.229359 Y42.791178 
G1 X32.395109 Y42.901928 
G1 X32.536069 Y43.042887 
G1 X32.646819 Y43.208638 
G1 X32.723106 Y43.392809 
G1 X32.761997 Y43.588325 
G1 X32.761997 Y45.311672 
G1 X32.723106 Y45.507188 
G1 X32.646819 Y45.691359 
G1 X32.536069 Y45.857109 
G1 X32.395109 Y45.998069 
G1 X32.229359 Y46.108819 
G1 X32.152391 Y46.140700 
G1 X32.284600 Y46.084381 
G1 X32.414481 Y45.990009 
G1 X32.528013 Y45.876481 
G1 X32.622381 Y45.746597 
G1 X32.695266 Y45.603547 
G1 X32.701466 Y45.576816 
G1 X32.712987 Y45.549000 
G1 X32.722303 Y45.520328 
G1 X32.752669 Y45.473572 
G1 X32.778725 Y45.439613 
G1 X32.810516 Y45.410987 
G1 X32.844475 Y45.384928 
G1 X32.882572 Y45.365519 
G1 X32.909438 Y45.351828 
G1 X32.963975 Y45.340238 
G1 X32.993450 Y45.333972 
G1 X33.019269 Y45.332956 
G1 X33.049138 Y45.336891 
G1 X33.079225 Y45.338466 
G1 X33.132238 Y45.355691 
G1 X33.160909 Y45.365006 
G1 X33.207666 Y45.395372 
G1 X33.241625 Y45.421428 
G1 X33.270250 Y45.453219 
G1 X33.296309 Y45.487178 
G1 X33.315719 Y45.525275 
G1 X33.329409 Y45.552141 
G1 X33.425281 Y45.789778 
G1 X33.712212 Y46.076712 
G1 X34.087103 Y46.231997 
G1 X34.492891 Y46.231997 
G1 X34.867781 Y46.076712 
G1 X35.154713 Y45.789781 
G1 X35.309997 Y45.414891 
G1 X35.309997 Y43.485103 
G1 X35.154713 Y43.110213 
G1 X34.930672 Y42.886175 
G1 X34.887728 Y42.811791 
G1 X34.865497 Y42.728828 
G1 X34.865497 Y32.763047 
G1 X34.887728 Y32.680084 
G1 X34.930672 Y32.605700 
G1 X34.991403 Y32.544969 
G1 X35.145700 Y32.390672 
G1 X35.220084 Y32.347728 
G1 X35.303047 Y32.325497 
G1 X36.944475 Y32.325497 
G1 X37.155991 Y32.237884 
G1 X37.317884 Y32.075991 
G1 X37.405497 Y31.864475 
G1 X37.405497 Y11.315519 
G1 X37.317884 Y11.104003 
G1 X37.140481 Y10.926600 
G1 X37.079741 Y10.865866 
G1 X32.253397 Y6.039522 
G1 X32.075991 Y5.862109 
G1 X31.864475 Y5.774497 
G1 X30.931159 Y5.774497 
G1 X30.848197 Y5.752266 
G1 X30.773816 Y5.709322 
G1 X30.549778 Y5.485281 
G1 X30.174891 Y5.329997 
G1 X28.245103 Y5.329997 
G1 X27.870213 Y5.485281 
G1 X27.583281 Y5.772213 
G1 X27.427997 Y6.147103 
G1 X27.427997 Y6.552891 
G1 X27.583281 Y6.927781 
G1 X27.870213 Y7.214713 
G1 X28.095175 Y7.307891 
G1 X28.134687 Y7.324256 
G1 X28.162534 Y7.335791 
G1 X28.206769 Y7.369734 
G1 X28.238572 Y7.398372 
G1 X28.264631 Y7.432334 
G1 X28.287919 Y7.468197 
G1 X28.304306 Y7.507753 
G1 X28.315828 Y7.535569 
G1 X28.323106 Y7.590850 
G1 X28.327041 Y7.620728 
G1 X28.326025 Y7.646550 
G1 X28.319759 Y7.676022 
G1 X28.315828 Y7.705881 
G1 X28.294491 Y7.757397 
G1 X28.282963 Y7.785234 
G1 X28.249019 Y7.829469 
G1 X28.220381 Y7.861272 
G1 X28.186419 Y7.887331 
G1 X28.150556 Y7.910619 
G1 X28.110994 Y7.927006 
G1 X28.083184 Y7.938528 
G1 X28.056444 Y7.944728 
G1 X27.913394 Y8.017613 
G1 X27.783513 Y8.111984 
G1 X27.669981 Y8.225513 
G1 X27.575612 Y8.355397 
G1 X27.508253 Y8.487600 
G1 X27.551178 Y8.410637 
G1 X27.661928 Y8.244888 
G1 X27.802888 Y8.103928 
G1 X27.968637 Y7.993178 
G1 X28.152809 Y7.916891 
G1 X28.348325 Y7.878000 
G1 X30.071672 Y7.878000 
G1 X30.267187 Y7.916891 
G1 X30.451359 Y7.993178 
G1 X30.617109 Y8.103928 
G1 X30.758069 Y8.244888 
G1 X30.868819 Y8.410637 
G1 X30.900697 Y8.487600 
G1 X30.844381 Y8.355394 
G1 X30.750013 Y8.225513 
G1 X30.636481 Y8.111981 
G1 X30.506597 Y8.017613 
G1 X30.363550 Y7.944728 
G1 X30.336809 Y7.938528 
G1 X30.309000 Y7.927006 
G1 X30.280328 Y7.917694 
G1 X30.233578 Y7.887331 
G1 X30.199613 Y7.861269 
G1 X30.170975 Y7.829469 
G1 X30.144934 Y7.795534 
G1 X30.125503 Y7.757397 
G1 X30.111828 Y7.730562 
G1 X30.100234 Y7.676022 
G1 X30.093969 Y7.646550 
G1 X30.092953 Y7.620728 
G1 X30.096888 Y7.590850 
G1 X30.098463 Y7.560775 
G1 X30.115687 Y7.507756 
G1 X30.125000 Y7.479088 
G1 X30.155362 Y7.432338 
G1 X30.181425 Y7.398372 
G1 X30.213225 Y7.369734 
G1 X30.247159 Y7.343694 
G1 X30.285306 Y7.324259 
G1 X30.312131 Y7.310587 
G1 X30.549778 Y7.214713 
G1 X30.713084 Y7.051406 
G1 X30.769141 Y6.995350 
G1 X30.848197 Y6.947728 
G1 X30.931159 Y6.925497 
G1 X31.419450 Y6.925497 
G1 X31.502412 Y6.947728 
G1 X31.576797 Y6.990672 
G1 X31.637528 Y7.051403 
G1 X36.189322 Y11.603197 
G1 X36.232266 Y11.677581 
G1 X36.254497 Y11.760544 
G1 X36.254497 Y30.891244 
G1 X36.232266 Y30.974206 
G1 X36.189322 Y31.048591 
G1 X36.128591 Y31.109322 
G1 X36.054206 Y31.152266 
G1 X35.971244 Y31.174497 
G1 X35.303047 Y31.174497 
G1 X35.220084 Y31.152266 
G1 X35.145700 Y31.109322 
G1 X35.084969 Y31.048591 
G1 X34.728275 Y30.691897 
G1 X33.851719 Y30.691897 
G1 X33.231897 Y31.311719 
G1 X33.231897 Y32.188275 
G1 X33.649322 Y32.605700 
G1 X33.692266 Y32.680084 
G1 X33.714497 Y32.763047 
G0 Z1.000000 
G0 X33.722500 Y32.667563 
G1 Z-0.200000 F144   
G1 X33.239900 Y32.184962 F200   
G1 X33.239900 Y31.315034 
G1 X33.855034 Y30.699900 
G1 X34.724962 Y30.699900 
G1 X35.207563 Y31.182500 
G1 X36.262500 Y31.182500 
G1 X36.262500 Y11.665062 
G1 X31.514934 Y6.917497 
G1 X30.809928 Y6.917497 
G1 X30.758069 Y6.995109 
G1 X30.617109 Y7.136069 
G1 X30.451359 Y7.246819 
G1 X30.267187 Y7.323106 
G1 X30.071672 Y7.361997 
G1 X28.348325 Y7.361997 
G1 X28.152809 Y7.323106 
G1 X27.968637 Y7.246819 
G1 X27.802888 Y7.136069 
G1 X27.661928 Y6.995109 
G1 X27.551178 Y6.829359 
G1 X27.474891 Y6.645187 
G1 X27.436000 Y6.449672 
G1 X27.436000 Y6.250325 
G1 X27.474891 Y6.054809 
G1 X27.551178 Y5.870637 
G1 X27.661928 Y5.704887 
G1 X27.802888 Y5.563928 
G1 X27.968637 Y5.453178 
G1 X28.152809 Y5.376891 
G1 X28.348325 Y5.338000 
G1 X30.071672 Y5.338000 
G1 X30.267187 Y5.376891 
G1 X30.451359 Y5.453178 
G1 X30.617109 Y5.563928 
G1 X30.758069 Y5.704887 
G1 X30.809928 Y5.782500 
G1 X31.824713 Y5.782500 
G1 X31.969047 Y5.821175 
G1 X32.098450 Y5.895887 
G1 X37.178450 Y10.975888 
G1 X37.284109 Y11.081547 
G1 X37.358822 Y11.210950 
G1 X37.397497 Y11.355284 
G1 X37.397497 Y31.824713 
G1 X37.358822 Y31.969047 
G1 X37.284109 Y32.098450 
G1 X37.178450 Y32.204109 
G1 X37.049047 Y32.278822 
G1 X36.904713 Y32.317497 
G1 X35.207563 Y32.317497 
G1 X34.857497 Y32.667563 
G1 X34.857497 Y42.850072 
G1 X34.935109 Y42.901928 
G1 X35.076069 Y43.042887 
G1 X35.186819 Y43.208638 
G1 X35.263106 Y43.392809 
G1 X35.301997 Y43.588325 
G1 X35.301997 Y45.311672 
G1 X35.263106 Y45.507188 
G1 X35.186819 Y45.691359 
G1 X35.076069 Y45.857109 
G1 X34.935109 Y45.998069 
G1 X34.769359 Y46.108819 
G1 X34.585188 Y46.185106 
G1 X34.389672 Y46.223997 
G1 X34.190325 Y46.223997 
G1 X33.994809 Y46.185106 
G1 X33.810637 Y46.108819 
G1 X33.644888 Y45.998069 
G1 X33.503928 Y45.857109 
G1 X33.393178 Y45.691359 
G1 X33.316891 Y45.507188 
G1 X33.278000 Y45.311672 
G1 X33.278000 Y43.588325 
G1 X33.316891 Y43.392809 
G1 X33.393178 Y43.208638 
G1 X33.503928 Y43.042887 
G1 X33.644888 Y42.901928 
G1 X33.722500 Y42.850072 
G1 X33.722500 Y32.667563 
G0 Z1.000000 
G0 X33.851719 Y21.378097 
G1 Z-0.200000 F144   
G1 X33.887600 Y21.378097 F200   
G1 X33.855034 Y21.370097 
G1 X33.239900 Y20.754963 
G1 X33.239900 Y20.722391 
G1 X33.231897 Y20.758275 
G1 X33.851719 Y21.378097 
G0 Z1.000000 
G0 X34.692391 Y21.378097 
G1 Z-0.200000 F144   
G1 X34.728275 Y21.378097 F200   
G1 X35.348097 Y20.758275 
G1 X35.348097 Y20.722391 
G1 X35.340097 Y20.754963 
G1 X34.724962 Y21.370097 
G1 X34.692391 Y21.370097 
G0 Z1.000000 
G0 X34.692391 Y19.269900 
G1 Z-0.200000 F144   
G1 X34.724962 Y19.269900 F200   
G1 X35.340097 Y19.885034 
G1 X35.340097 Y19.917600 
G1 X35.348097 Y19.881719 
G1 X34.728275 Y19.261897 
G1 X34.692391 Y19.261897 
G0 Z1.000000 
G0 X33.887600 Y19.269900 
G1 Z-0.200000 F144   
G1 X33.887600 Y19.261894 F200   
G1 X33.851719 Y19.261894 
G1 X33.231897 Y19.881719 
G1 X33.231897 Y19.917600 
G1 X33.239900 Y19.885034 
G1 X33.855034 Y19.269900 
G1 X33.887600 Y19.269900 
G0 Z1.000000 
G0 X22.501997 Y19.231409 
G1 Z-0.200000 F144   
G1 X22.501997 Y18.868581 F200   
G1 X22.363159 Y18.533394 
G1 X22.106600 Y18.276834 
G1 X21.771409 Y18.137997 
G1 X21.408584 Y18.137997 
G1 X21.073394 Y18.276834 
G1 X20.816834 Y18.533394 
G1 X20.677997 Y18.868584 
G1 X20.677997 Y19.231409 
G1 X20.816834 Y19.566600 
G1 X21.073394 Y19.823159 
G1 X21.408584 Y19.961997 
G1 X21.771406 Y19.961997 
G1 X22.106600 Y19.823156 
G1 X22.363156 Y19.566600 
G1 X22.501997 Y19.231409 
G0 Z1.000000 
G0 X22.493997 Y19.139034 
G1 Z-0.200000 F144   
G1 X22.459256 Y19.313688 F200   
G1 X22.391112 Y19.478203 
G1 X22.292181 Y19.626266 
G1 X22.166266 Y19.752181 
G1 X22.018203 Y19.851112 
G1 X21.853687 Y19.919256 
G1 X21.679034 Y19.953997 
G1 X21.500962 Y19.953997 
G1 X21.326309 Y19.919256 
G1 X21.161794 Y19.851112 
G1 X21.013731 Y19.752181 
G1 X20.887816 Y19.626266 
G1 X20.788884 Y19.478203 
G1 X20.720741 Y19.313688 
G1 X20.686000 Y19.139034 
G1 X20.686000 Y18.960963 
G1 X20.720741 Y18.786309 
G1 X20.788884 Y18.621794 
G1 X20.887816 Y18.473731 
G1 X21.013731 Y18.347816 
G1 X21.161794 Y18.248884 
G1 X21.326309 Y18.180741 
G1 X21.500962 Y18.146000 
G1 X21.679034 Y18.146000 
G1 X21.853687 Y18.180741 
G1 X22.018203 Y18.248884 
G1 X22.166266 Y18.347816 
G1 X22.292181 Y18.473731 
G1 X22.391112 Y18.621794 
G1 X22.459256 Y18.786309 
G1 X22.493997 Y18.960963 
G1 X22.493997 Y19.139034 
G0 Z1.000000 
G0 X22.363156 Y21.073394 
G1 Z-0.200000 F144   
G1 X22.106600 Y20.816837 F200   
G1 X21.771409 Y20.677997 
G1 X21.408584 Y20.677997 
G1 X21.073394 Y20.816837 
G1 X20.816837 Y21.073394 
G1 X20.677997 Y21.408584 
G1 X20.677997 Y21.771409 
G1 X20.816837 Y22.106600 
G1 X21.073394 Y22.363156 
G1 X21.408584 Y22.501997 
G1 X21.771409 Y22.501997 
G1 X22.106600 Y22.363156 
G1 X22.363159 Y22.106600 
G1 X22.501997 Y21.771409 
G1 X22.501997 Y21.408584 
G1 X22.363156 Y21.073394 
G0 Z1.000000 
G0 X22.391112 Y21.161794 
G1 Z-0.200000 F144   
G1 X22.459256 Y21.326309 F200   
G1 X22.493997 Y21.500962 
G1 X22.493997 Y21.679034 
G1 X22.459256 Y21.853687 
G1 X22.391112 Y22.018203 
G1 X22.292181 Y22.166266 
G1 X22.166266 Y22.292181 
G1 X22.018203 Y22.391112 
G1 X21.853687 Y22.459256 
G1 X21.679034 Y22.493997 
G1 X21.500962 Y22.493997 
G1 X21.326309 Y22.459256 
G1 X21.161794 Y22.391112 
G1 X21.013731 Y22.292181 
G1 X20.887816 Y22.166266 
G1 X20.788884 Y22.018203 
G1 X20.720741 Y21.853687 
G1 X20.686000 Y21.679034 
G1 X20.686000 Y21.500962 
G1 X20.720741 Y21.326309 
G1 X20.788884 Y21.161794 
G1 X20.887816 Y21.013731 
G1 X21.013731 Y20.887816 
G1 X21.161794 Y20.788884 
G1 X21.326309 Y20.720741 
G1 X21.500962 Y20.686000 
G1 X21.679034 Y20.686000 
G1 X21.853687 Y20.720741 
G1 X22.018203 Y20.788884 
G1 X22.166266 Y20.887816 
G1 X22.292181 Y21.013731 
G1 X22.391112 Y21.161794 
G0 Z1.000000 
G0 X22.363159 Y23.613394 
G1 Z-0.200000 F144   
G1 X22.106600 Y23.356834 F200   
G1 X21.771409 Y23.217997 
G1 X21.408584 Y23.217997 
G1 X21.073394 Y23.356834 
G1 X20.816834 Y23.613394 
G1 X20.677997 Y23.948584 
G1 X20.677997 Y24.311406 
G1 X20.816837 Y24.646600 
G1 X21.073394 Y24.903156 
G1 X21.408584 Y25.041997 
G1 X21.771409 Y25.041997 
G1 X22.106600 Y24.903156 
G1 X22.363156 Y24.646600 
G1 X22.501997 Y24.311409 
G1 X22.501997 Y23.948581 
G1 X22.363159 Y23.613394 
G0 Z1.000000 
G0 X22.391112 Y23.701794 
G1 Z-0.200000 F144   
G1 X22.459256 Y23.866309 F200   
G1 X22.493997 Y24.040962 
G1 X22.493997 Y24.219034 
G1 X22.459256 Y24.393687 
G1 X22.391112 Y24.558203 
G1 X22.292181 Y24.706266 
G1 X22.166266 Y24.832181 
G1 X22.018203 Y24.931113 
G1 X21.853687 Y24.999256 
G1 X21.679034 Y25.033997 
G1 X21.500962 Y25.033997 
G1 X21.326309 Y24.999256 
G1 X21.161794 Y24.931113 
G1 X21.013731 Y24.832181 
G1 X20.887816 Y24.706266 
G1 X20.788884 Y24.558203 
G1 X20.720741 Y24.393687 
G1 X20.686000 Y24.219034 
G1 X20.686000 Y24.040962 
G1 X20.720741 Y23.866309 
G1 X20.788884 Y23.701794 
G1 X20.887816 Y23.553731 
G1 X21.013731 Y23.427816 
G1 X21.161794 Y23.328884 
G1 X21.326309 Y23.260741 
G1 X21.500962 Y23.226000 
G1 X21.679034 Y23.226000 
G1 X21.853687 Y23.260741 
G1 X22.018203 Y23.328884 
G1 X22.166266 Y23.427816 
G1 X22.292181 Y23.553731 
G1 X22.391112 Y23.701794 
G0 Z1.000000 
G0 X22.106600 Y17.283156 
G1 Z-0.200000 F144   
G1 X22.363156 Y17.026600 F200   
G1 X22.501997 Y16.691409 
G1 X22.501997 Y16.328584 
G1 X22.363156 Y15.993394 
G1 X22.106600 Y15.736838 
G1 X21.771409 Y15.597997 
G1 X21.408584 Y15.597997 
G1 X21.073394 Y15.736838 
G1 X20.816837 Y15.993394 
G1 X20.677997 Y16.328584 
G1 X20.677997 Y16.691409 
G1 X20.816837 Y17.026600 
G1 X21.073394 Y17.283156 
G1 X21.408584 Y17.421997 
G1 X21.771409 Y17.421997 
G1 X22.106600 Y17.283156 
G0 Z1.000000 
G0 X22.018203 Y17.311113 
G1 Z-0.200000 F144   
G1 X21.853687 Y17.379256 F200   
G1 X21.679034 Y17.413997 
G1 X21.500962 Y17.413997 
G1 X21.326309 Y17.379256 
G1 X21.161794 Y17.311113 
G1 X21.013731 Y17.212181 
G1 X20.887816 Y17.086266 
G1 X20.788884 Y16.938203 
G1 X20.720741 Y16.773688 
G1 X20.686000 Y16.599034 
G1 X20.686000 Y16.420963 
G1 X20.720741 Y16.246309 
G1 X20.788884 Y16.081794 
G1 X20.887816 Y15.933731 
G1 X21.013731 Y15.807816 
G1 X21.161794 Y15.708884 
G1 X21.326309 Y15.640741 
G1 X21.500962 Y15.606000 
G1 X21.679034 Y15.606000 
G1 X21.853687 Y15.640741 
G1 X22.018203 Y15.708884 
G1 X22.166266 Y15.807816 
G1 X22.292181 Y15.933731 
G1 X22.391112 Y16.081794 
G1 X22.459256 Y16.246309 
G1 X22.493997 Y16.420963 
G1 X22.493997 Y16.599034 
G1 X22.459256 Y16.773688 
G1 X22.391112 Y16.938203 
G1 X22.292181 Y17.086266 
G1 X22.166266 Y17.212181 
G1 X22.018203 Y17.311113 
G0 Z1.000000 
G0 X22.018203 Y14.771112 
G1 Z-0.200000 F144   
G1 X21.853687 Y14.839256 F200   
G1 X21.679034 Y14.873997 
G1 X21.500962 Y14.873997 
G1 X21.326309 Y14.839256 
G1 X21.161794 Y14.771112 
G1 X21.013731 Y14.672181 
G1 X20.887816 Y14.546266 
G1 X20.788884 Y14.398203 
G1 X20.720741 Y14.233688 
G1 X20.686000 Y14.059034 
G1 X20.686000 Y13.880963 
G1 X20.720741 Y13.706309 
G1 X20.788884 Y13.541794 
G1 X20.887816 Y13.393731 
G1 X21.013731 Y13.267816 
G1 X21.161794 Y13.168884 
G1 X21.326309 Y13.100741 
G1 X21.500962 Y13.066000 
G1 X21.679034 Y13.066000 
G1 X21.853687 Y13.100741 
G1 X22.018203 Y13.168884 
G1 X22.166266 Y13.267816 
G1 X22.292181 Y13.393731 
G1 X22.391112 Y13.541794 
G1 X22.459256 Y13.706309 
G1 X22.493997 Y13.880963 
G1 X22.493997 Y14.059034 
G1 X22.459256 Y14.233688 
G1 X22.391112 Y14.398203 
G1 X22.292181 Y14.546266 
G1 X22.166266 Y14.672181 
G1 X22.018203 Y14.771112 
G0 Z1.000000 
G0 X22.106600 Y14.743159 
G1 Z-0.200000 F144   
G1 X22.363159 Y14.486600 F200   
G1 X22.501997 Y14.151409 
G1 X22.501997 Y13.788584 
G1 X22.363156 Y13.453394 
G1 X22.106600 Y13.196834 
G1 X21.771409 Y13.057997 
G1 X21.408584 Y13.057997 
G1 X21.073394 Y13.196834 
G1 X20.816834 Y13.453394 
G1 X20.677997 Y13.788584 
G1 X20.677997 Y14.151409 
G1 X20.816834 Y14.486600 
G1 X21.073394 Y14.743159 
G1 X21.408584 Y14.881997 
G1 X21.771409 Y14.881997 
G1 X22.106600 Y14.743159 
G0 Z1.000000 
G0 X22.106600 Y12.203156 
G1 Z-0.200000 F144   
G1 X22.363156 Y11.946600 F200   
G1 X22.501997 Y11.611409 
G1 X22.501997 Y11.248584 
G1 X22.363156 Y10.913394 
G1 X22.106600 Y10.656837 
G1 X21.771409 Y10.517997 
G1 X21.408584 Y10.517997 
G1 X21.073394 Y10.656837 
G1 X20.816837 Y10.913394 
G1 X20.677997 Y11.248584 
G1 X20.677997 Y11.611409 
G1 X20.816837 Y11.946600 
G1 X21.073394 Y12.203156 
G1 X21.408584 Y12.341997 
G1 X21.771409 Y12.341997 
G1 X22.106600 Y12.203156 
G0 Z1.000000 
G0 X22.018203 Y12.231113 
G1 Z-0.200000 F144   
G1 X21.853687 Y12.299256 F200   
G1 X21.679034 Y12.333997 
G1 X21.500962 Y12.333997 
G1 X21.326309 Y12.299256 
G1 X21.161794 Y12.231113 
G1 X21.013731 Y12.132181 
G1 X20.887816 Y12.006266 
G1 X20.788884 Y11.858203 
G1 X20.720741 Y11.693687 
G1 X20.686000 Y11.519034 
G1 X20.686000 Y11.340962 
G1 X20.720741 Y11.166309 
G1 X20.788884 Y11.001794 
G1 X20.887816 Y10.853731 
G1 X21.013731 Y10.727816 
G1 X21.161794 Y10.628884 
G1 X21.326309 Y10.560741 
G1 X21.500962 Y10.526000 
G1 X21.679034 Y10.526000 
G1 X21.853687 Y10.560741 
G1 X22.018203 Y10.628884 
G1 X22.166266 Y10.727816 
G1 X22.292181 Y10.853731 
G1 X22.391112 Y11.001794 
G1 X22.459256 Y11.166309 
G1 X22.493997 Y11.340962 
G1 X22.493997 Y11.519034 
G1 X22.459256 Y11.693687 
G1 X22.391112 Y11.858203 
G1 X22.292181 Y12.006266 
G1 X22.166266 Y12.132181 
G1 X22.018203 Y12.231113 
G0 Z1.000000 
G0 X22.293728 Y9.793997 
G1 Z-0.200000 F144   
G1 X20.886269 Y9.793997 F200   
G1 X20.794384 Y9.755937 
G1 X20.724059 Y9.685612 
G1 X20.686000 Y9.593728 
G1 X20.686000 Y8.186269 
G1 X20.724059 Y8.094384 
G1 X20.794384 Y8.024059 
G1 X20.886269 Y7.986000 
G1 X22.293728 Y7.986000 
G1 X22.385613 Y8.024059 
G1 X22.455938 Y8.094384 
G1 X22.493997 Y8.186269 
G1 X22.493997 Y9.593728 
G1 X22.455938 Y9.685612 
G1 X22.385613 Y9.755937 
G1 X22.293728 Y9.793997 
G0 Z1.000000 
G0 X22.350863 Y9.801997 
G1 Z-0.200000 F144   
G1 X22.501997 Y9.650863 F200   
G1 X22.501997 Y8.110844 
G1 X22.484041 Y8.079747 
G1 X22.463659 Y8.003678 
G1 X22.461806 Y7.954313 
G1 X22.461803 Y7.910894 
G1 X22.484031 Y7.827928 
G1 X22.526972 Y7.753547 
G1 X22.553856 Y7.726662 
G1 X22.587703 Y7.692809 
G1 X22.993041 Y7.287484 
G1 X23.244997 Y6.679200 
G1 X23.244997 Y6.020794 
G1 X22.993041 Y5.412516 
G1 X22.527478 Y4.946953 
G1 X21.919200 Y4.694997 
G1 X21.260794 Y4.694997 
G1 X20.652516 Y4.946953 
G1 X20.186953 Y5.412516 
G1 X19.934997 Y6.020794 
G1 X19.934997 Y6.679200 
G1 X20.186953 Y7.287484 
G1 X20.592281 Y7.692806 
G1 X20.625287 Y7.725812 
G1 X20.653012 Y7.753534 
G1 X20.682131 Y7.803972 
G1 X20.712031 Y7.887912 
G1 X20.718187 Y7.953366 
G1 X20.718187 Y7.996772 
G1 X20.695959 Y8.079734 
G1 X20.677997 Y8.110844 
G1 X20.677997 Y9.650863 
G1 X20.829131 Y9.801997 
G1 X22.350863 Y9.801997 
G0 Z1.000000 
G0 X18.164997 Y9.408853 
G1 Z-0.200000 F144   
G1 X18.164997 Y8.371144 F200   
G1 X17.896425 Y7.368828 
G1 X17.377578 Y6.470162 
G1 X16.643831 Y5.736413 
G1 X15.745166 Y5.217569 
G1 X14.742847 Y4.948997 
G1 X13.705147 Y4.948997 
G1 X12.702828 Y5.217569 
G1 X11.804163 Y5.736413 
G1 X11.070412 Y6.470162 
G1 X10.551569 Y7.368828 
G1 X10.282997 Y8.371147 
G1 X10.282997 Y9.408847 
G1 X10.551569 Y10.411166 
G1 X11.070412 Y11.309831 
G1 X11.804163 Y12.043581 
G1 X12.702828 Y12.562425 
G1 X13.705147 Y12.830997 
G1 X14.742847 Y12.830997 
G1 X15.745166 Y12.562425 
G1 X16.643831 Y12.043581 
G1 X17.377581 Y11.309831 
G1 X17.896425 Y10.411166 
G1 X18.164997 Y9.408853 
G0 Z1.000000 
G0 X30.971981 Y43.023513 
G1 Z-0.200000 F144   
G1 X30.877613 Y43.153397 F200   
G1 X30.804728 Y43.296447 
G1 X30.755112 Y43.449144 
G1 X30.729997 Y43.607719 
G1 X30.729997 Y44.047600 
G1 X30.738000 Y43.588325 
G1 X30.776891 Y43.392809 
G1 X30.853178 Y43.208638 
G1 X30.963928 Y43.042887 
G1 X31.104888 Y42.901928 
G1 X31.270637 Y42.791178 
G1 X31.347600 Y42.759300 
G1 X31.215394 Y42.815613 
G1 X31.085513 Y42.909984 
G1 X30.971981 Y43.023513 
G0 Z1.000000 
G0 X30.738000 Y44.852391 
G1 Z-0.200000 F144   
G1 X30.729997 Y44.852391 F200   
G1 X30.729997 Y45.292275 
G1 X30.755112 Y45.450853 
G1 X30.804728 Y45.603547 
G1 X30.877613 Y45.746600 
G1 X30.971981 Y45.876481 
G1 X31.085513 Y45.990012 
G1 X31.215394 Y46.084381 
G1 X31.347600 Y46.151741 
G1 X31.270637 Y46.108819 
G1 X31.104888 Y45.998069 
G1 X30.963928 Y45.857109 
G1 X30.853178 Y45.691359 
G1 X30.776891 Y45.507188 
G1 X30.738000 Y45.311672 
G1 X30.738000 Y44.852391 
G0 Z1.000000 
G0 X29.988012 Y53.183512 
G1 Z-0.200000 F144   
G1 X29.874481 Y53.069981 F200   
G1 X29.744600 Y52.975612 
G1 X29.612391 Y52.908253 
G1 X29.689359 Y52.951178 
G1 X29.855109 Y53.061928 
G1 X29.996069 Y53.202888 
G1 X30.106819 Y53.368637 
G1 X30.183106 Y53.552809 
G1 X30.221997 Y53.748325 
G1 X30.221997 Y54.207600 
G1 X30.229997 Y53.767719 
G1 X30.204881 Y53.609141 
G1 X30.155266 Y53.456447 
G1 X30.082381 Y53.313394 
G1 X29.988012 Y53.183512 
G0 Z1.000000 
G0 X30.221997 Y55.012391 
G1 Z-0.200000 F144   
G1 X30.221997 Y55.471672 F200   
G1 X30.183106 Y55.667187 
G1 X30.106819 Y55.851359 
G1 X29.996069 Y56.017109 
G1 X29.855109 Y56.158069 
G1 X29.689359 Y56.268819 
G1 X29.612391 Y56.300700 
G1 X29.744600 Y56.244381 
G1 X29.874481 Y56.150013 
G1 X29.988012 Y56.036481 
G1 X30.082381 Y55.906597 
G1 X30.155266 Y55.763547 
G1 X30.204881 Y55.610850 
G1 X30.229997 Y55.452275 
G1 X30.229997 Y55.012391 
G0 Z1.000000 
G0 X7.878000 Y55.012391 
G1 Z-0.200000 F144   
G1 X7.869997 Y55.012391 F200   
G1 X7.869997 Y55.452275 
G1 X7.895112 Y55.610853 
G1 X7.944728 Y55.763547 
G1 X8.017613 Y55.906600 
G1 X8.111981 Y56.036481 
G1 X8.225513 Y56.150013 
G1 X8.355394 Y56.244381 
G1 X8.487600 Y56.311741 
G1 X8.410637 Y56.268819 
G1 X8.244888 Y56.158069 
G1 X8.103928 Y56.017109 
G1 X7.993178 Y55.851359 
G1 X7.916891 Y55.667187 
G1 X7.878000 Y55.471672 
G1 X7.878000 Y55.012391 
G0 Z1.000000 
G0 X7.799725 Y78.947200 
G1 Z-0.200000 F144   
G1 X7.999072 Y78.947200 F200   
G1 X8.194588 Y78.986091 
G1 X8.378759 Y79.062378 
G1 X8.544509 Y79.173128 
G1 X8.685469 Y79.314087 
G1 X8.796219 Y79.479838 
G1 X8.872506 Y79.664009 
G1 X8.911397 Y79.859525 
G1 X8.911397 Y81.582872 
G1 X8.872506 Y81.778387 
G1 X8.796219 Y81.962559 
G1 X8.685469 Y82.128309 
G1 X8.544509 Y82.269269 
G1 X8.378759 Y82.380019 
G1 X8.194588 Y82.456306 
G1 X7.999072 Y82.495197 
G1 X7.799725 Y82.495197 
G1 X7.604209 Y82.456306 
G1 X7.420038 Y82.380019 
G1 X7.254288 Y82.269269 
G1 X7.113328 Y82.128309 
G1 X7.002578 Y81.962559 
G1 X6.926291 Y81.778387 
G1 X6.887400 Y81.582872 
G1 X6.887400 Y79.859525 
G1 X6.926291 Y79.664009 
G1 X7.002578 Y79.479838 
G1 X7.113328 Y79.314087 
G1 X7.254288 Y79.173128 
G1 X7.420038 Y79.062378 
G1 X7.604209 Y78.986091 
G1 X7.799725 Y78.947200 
G0 Z1.000000 
G0 X7.696503 Y78.939197 
G1 Z-0.200000 F144   
G1 X7.321612 Y79.094481 F200   
G1 X7.034681 Y79.381412 
G1 X6.879397 Y79.756303 
G1 X6.879397 Y81.686091 
G1 X7.034681 Y82.060981 
G1 X7.321612 Y82.347913 
G1 X7.696503 Y82.503197 
G1 X8.102291 Y82.503197 
G1 X8.477181 Y82.347913 
G1 X8.764112 Y82.060981 
G1 X8.919397 Y81.686091 
G1 X8.919397 Y79.756303 
G1 X8.764112 Y79.381412 
G1 X8.477181 Y79.094481 
G1 X8.102291 Y78.939197 
G1 X7.696503 Y78.939197 
G0 Z1.000000 
G0 X11.842813 Y79.094481 
G1 Z-0.200000 F144   
G1 X11.555881 Y79.381412 F200   
G1 X11.400597 Y79.756303 
G1 X11.400597 Y81.686094 
G1 X11.555881 Y82.060981 
G1 X11.842813 Y82.347913 
G1 X12.217703 Y82.503197 
G1 X12.623491 Y82.503197 
G1 X12.998378 Y82.347916 
G1 X13.285312 Y82.060981 
G1 X13.440597 Y81.686091 
G1 X13.440597 Y79.756303 
G1 X13.285312 Y79.381412 
G1 X12.998381 Y79.094481 
G1 X12.623491 Y78.939197 
G1 X12.217703 Y78.939197 
G1 X11.842813 Y79.094481 
G0 Z1.000000 
G0 X11.941237 Y79.062378 
G1 Z-0.200000 F144   
G1 X12.125409 Y78.986091 F200   
G1 X12.320925 Y78.947200 
G1 X12.520272 Y78.947200 
G1 X12.715787 Y78.986091 
G1 X12.899959 Y79.062378 
G1 X13.065709 Y79.173128 
G1 X13.206669 Y79.314087 
G1 X13.317419 Y79.479838 
G1 X13.393706 Y79.664009 
G1 X13.432597 Y79.859525 
G1 X13.432597 Y81.582872 
G1 X13.393706 Y81.778387 
G1 X13.317419 Y81.962559 
G1 X13.206669 Y82.128309 
G1 X13.065709 Y82.269269 
G1 X12.899959 Y82.380019 
G1 X12.715787 Y82.456306 
G1 X12.520272 Y82.495197 
G1 X12.320925 Y82.495197 
G1 X12.125409 Y82.456306 
G1 X11.941237 Y82.380019 
G1 X11.775488 Y82.269269 
G1 X11.634528 Y82.128309 
G1 X11.523778 Y81.962559 
G1 X11.447491 Y81.778387 
G1 X11.408600 Y81.582872 
G1 X11.408600 Y79.859525 
G1 X11.447491 Y79.664009 
G1 X11.523778 Y79.479838 
G1 X11.634528 Y79.314087 
G1 X11.775488 Y79.173128 
G1 X11.941237 Y79.062378 
G0 Z1.000000 
G0 X4.212391 Y80.383575 
G1 Z-0.200000 F144   
G1 X4.212391 Y80.394894 F200   
G1 X4.695094 Y80.877600 
G1 X4.212391 Y80.383575 
G0 Z1.000000 
G0 X3.407600 Y80.383578 
G1 Z-0.200000 F144   
G1 X2.913578 Y80.877600 F200   
G1 X3.407600 Y80.394900 
G0 Z1.000000 
G0 X3.407600 Y82.165094 
G1 Z-0.200000 F144   
G1 X2.924897 Y81.682391 F200   
G1 X3.407600 Y82.176416 
G0 Z1.000000 
G0 X4.212391 Y82.165100 
G1 Z-0.200000 F144   
G1 X4.212391 Y82.176419 F200   
G1 X4.706419 Y81.682391 
G1 X4.212391 Y82.165100 
G0 Z1.000000 
G0 X21.004681 Y82.060981 
G1 Z-0.200000 F144   
G1 X21.291612 Y82.347913 F200   
G1 X21.666503 Y82.503197 
G1 X22.072291 Y82.503197 
G1 X22.447181 Y82.347913 
G1 X22.734112 Y82.060981 
G1 X22.889397 Y81.686091 
G1 X22.889397 Y79.756300 
G1 X22.734116 Y79.381416 
G1 X22.447181 Y79.094481 
G1 X22.072291 Y78.939197 
G1 X21.666503 Y78.939197 
G1 X21.291612 Y79.094481 
G1 X21.004681 Y79.381412 
G1 X20.849397 Y79.756303 
G1 X20.849397 Y81.686091 
G1 X21.004681 Y82.060981 
G0 Z1.000000 
G0 X20.972578 Y81.962559 
G1 Z-0.200000 F144   
G1 X20.896291 Y81.778387 F200   
G1 X20.857400 Y81.582872 
G1 X20.857400 Y79.859525 
G1 X20.896291 Y79.664009 
G1 X20.972578 Y79.479838 
G1 X21.083328 Y79.314087 
G1 X21.224287 Y79.173128 
G1 X21.390037 Y79.062378 
G1 X21.574209 Y78.986091 
G1 X21.769725 Y78.947200 
G1 X21.969072 Y78.947200 
G1 X22.164587 Y78.986091 
G1 X22.348759 Y79.062378 
G1 X22.514509 Y79.173128 
G1 X22.655469 Y79.314087 
G1 X22.766219 Y79.479838 
G1 X22.842506 Y79.664009 
G1 X22.881397 Y79.859525 
G1 X22.881397 Y81.582872 
G1 X22.842506 Y81.778387 
G1 X22.766219 Y81.962559 
G1 X22.655469 Y82.128309 
G1 X22.514509 Y82.269269 
G1 X22.348759 Y82.380019 
G1 X22.164587 Y82.456306 
G1 X21.969072 Y82.495197 
G1 X21.769725 Y82.495197 
G1 X21.574209 Y82.456306 
G1 X21.390037 Y82.380019 
G1 X21.224287 Y82.269269 
G1 X21.083328 Y82.128309 
G1 X20.972578 Y81.962559 
G0 Z1.000000 
G0 X25.493778 Y81.962559 
G1 Z-0.200000 F144   
G1 X25.417491 Y81.778387 F200   
G1 X25.378600 Y81.582872 
G1 X25.378600 Y79.859525 
G1 X25.417491 Y79.664009 
G1 X25.493778 Y79.479838 
G1 X25.604528 Y79.314087 
G1 X25.745487 Y79.173128 
G1 X25.911237 Y79.062378 
G1 X26.095409 Y78.986091 
G1 X26.290925 Y78.947200 
G1 X26.490272 Y78.947200 
G1 X26.685787 Y78.986091 
G1 X26.869959 Y79.062378 
G1 X27.035709 Y79.173128 
G1 X27.176669 Y79.314087 
G1 X27.287419 Y79.479838 
G1 X27.363706 Y79.664009 
G1 X27.402597 Y79.859525 
G1 X27.402597 Y81.582872 
G1 X27.363706 Y81.778387 
G1 X27.287419 Y81.962559 
G1 X27.176669 Y82.128309 
G1 X27.035709 Y82.269269 
G1 X26.869959 Y82.380019 
G1 X26.685787 Y82.456306 
G1 X26.490272 Y82.495197 
G1 X26.290925 Y82.495197 
G1 X26.095409 Y82.456306 
G1 X25.911237 Y82.380019 
G1 X25.745487 Y82.269269 
G1 X25.604528 Y82.128309 
G1 X25.493778 Y81.962559 
G0 Z1.000000 
G0 X25.525881 Y82.060981 
G1 Z-0.200000 F144   
G1 X25.812812 Y82.347913 F200   
G1 X26.187703 Y82.503197 
G1 X26.593491 Y82.503197 
G1 X26.968381 Y82.347913 
G1 X27.255312 Y82.060981 
G1 X27.410597 Y81.686091 
G1 X27.410597 Y79.756303 
G1 X27.255312 Y79.381412 
G1 X26.968381 Y79.094481 
G1 X26.593491 Y78.939197 
G1 X26.187703 Y78.939197 
G1 X25.812812 Y79.094481 
G1 X25.525881 Y79.381412 
G1 X25.370597 Y79.756303 
G1 X25.370597 Y81.686091 
G1 X25.525881 Y82.060981 
G0 Z1.000000 
G0 X29.583575 Y81.682391 
G1 Z-0.200000 F144   
G1 X30.077600 Y82.176416 F200   
G1 X29.594894 Y81.682391 
G0 Z1.000000 
G0 X29.583578 Y80.877600 
G1 Z-0.200000 F144   
G1 X29.594900 Y80.877600 F200   
G1 X30.077600 Y80.394903 
G1 X29.583578 Y80.877600 
G0 Z1.000000 
G0 X30.882391 Y80.394897 
G1 Z-0.200000 F144   
G1 X31.365094 Y80.877600 F200   
G1 X30.882391 Y80.383575 
G0 Z1.000000 
G0 X31.365100 Y81.682391 
G1 Z-0.200000 F144   
G1 X30.882391 Y82.165100 F200   
G1 X31.376419 Y81.682391 
G0 Z1.000000 
G0 Z1.000000
G0 X21.590000 Y8.890000 
G1 Z-0.254000 F144   
G1 Z1.000000
(R1.000000  P1.000000)
G0 X21.590000 Y11.430000 
G1 Z-0.254000 F144   
G0 Z1.000000 
G0 X21.590000 Y13.970000 
G1 Z-0.254000 F144   
G0 Z1.000000 
G0 X21.590000 Y16.510000 
G1 Z-0.254000 F144   
G0 Z1.000000 
G0 X21.590000 Y19.050000 
G1 Z-0.254000 F144   
G0 Z1.000000 
G0 X21.590000 Y21.590000 
G1 Z-0.254000 F144   
G0 Z1.000000 
G0 X21.590000 Y24.130000 
G1 Z-0.254000 F144   
G0 Z1.000000 
G0 X21.590000 Y26.670000 
G1 Z-0.254000 F144   
G0 Z1.000000 
G0 X21.590000 Y29.210000 
G1 Z-0.254000 F144   
G0 Z1.000000 
G0 X21.590000 Y31.750000 
G1 Z-0.254000 F144   
G0 Z1.000000 
G0 X21.590000 Y34.290000 
G1 Z-0.254000 F144   
G0 Z1.000000 
G0 X21.590000 Y36.830000 
G1 Z-0.254000 F144   
G0 Z1.000000 
G0 X21.590000 Y39.370000 
G1 Z-0.254000 F144   
G0 Z1.000000 
G0 X21.590000 Y41.910000 
G1 Z-0.254000 F144   
G0 Z1.000000 
G0 X21.590000 Y44.450000 
G1 Z-0.254000 F144   
G0 Z1.000000 
G0 X6.350000 Y44.450000 
G1 Z-0.254000 F144   
G0 Z1.000000 
G0 X6.350000 Y41.910000 
G1 Z-0.254000 F144   
G0 Z1.000000 
G0 X6.350000 Y39.370000 
G1 Z-0.254000 F144   
G0 Z1.000000 
G0 X6.350000 Y36.830000 
G1 Z-0.254000 F144   
G0 Z1.000000 
G0 X6.350000 Y34.290000 
G1 Z-0.254000 F144   
G0 Z1.000000 
G0 X6.350000 Y31.750000 
G1 Z-0.254000 F144   
G0 Z1.000000 
G0 X6.350000 Y29.210000 
G1 Z-0.254000 F144   
G0 Z1.000000 
G0 X6.350000 Y26.670000 
G1 Z-0.254000 F144   
G0 Z1.000000 
G0 X6.350000 Y24.130000 
G1 Z-0.254000 F144   
G0 Z1.000000 
G0 X6.350000 Y21.590000 
G1 Z-0.254000 F144   
G0 Z1.000000 
G0 X6.350000 Y19.050000 
G1 Z-0.254000 F144   
G0 Z1.000000 
G0 X6.350000 Y16.510000 
G1 Z-0.254000 F144   
G0 Z1.000000 
G0 X6.350000 Y13.970000 
G1 Z-0.254000 F144   
G0 Z1.000000 
G0 X6.350000 Y11.430000 
G1 Z-0.254000 F144   
G0 Z1.000000 
G0 X6.350000 Y8.890000 
G1 Z-0.254000 F144   
G0 Z1.000000 
G0 X21.590000 Y6.350000 
G1 Z-0.254000 F144   
G0 Z1.000000 
G0 X6.350000 Y6.350000 
G1 Z-0.254000 F144   
G0 Z1.000000 
G0 X6.350000 Y46.990000 
G1 Z-0.254000 F144   
G0 Z1.000000 
G0 X21.590000 Y46.990000 
G1 Z-0.254000 F144   
G0 Z1.000000 
G0 X29.210000 Y20.320000 
G1 Z-0.254000 F144   
G0 Z1.000000 
G0 X34.290000 Y20.320000 
G1 Z-0.254000 F144   
G0 Z1.000000 
G0 X34.290000 Y31.750000 
G1 Z-0.254000 F144   
G0 Z1.000000 
G0 X29.210000 Y31.750000 
G1 Z-0.254000 F144   
G0 Z1.000000 
G0 X29.210000 Y8.890000 
G1 Z-0.254000 F144   
G0 Z1.000000 
G0 X29.210000 Y6.350000 
