(.../Dokumenter/EAGLE/ulps/pcb-gcode.ulp)
(Copyright 2005 - 2012 by John Johnson)
(See readme.txt for licensing terms.)
(This file generated from the board:)
(.../projects/RangerModule/rangerBoard.brd)
(Current profile is .../pcb-gcode-3.6.2.4/profiles/grbl-NuggetMill.pp  )
(This file generated 14/12/2021 13:51)
(Settings from pcb-machine.h)
(spindle on time = 0.0000)
(spindle speed = 20000.0000)
(tool change at 0.000000 0.000000 12.700000 )
(feed rate xy = F0     )
(feed rate z  = F144   )
(Z Axis Settings)
(  High     Up        Down     Drill)
(50.000000 	1.000000 	-0.200000 	-1.650000 )
(Settings from pcb-defaults.h)
(isolate min = 0.1500)
(isolate max = 0.5000)
(isolate step = 0.1000)
(Generated bottom outlines, bottom drill, bottom stencil)
(Unit of measure: mm)
( Tool|       Size       |  Min Sub |  Max Sub |   Count )
( T01  0.800mm 0.0315in 0.0000in 0.0000in )
( T02  0.813mm 0.0320in 0.0000in 0.0000in )
( T03  1.016mm 0.0400in 0.0000in 0.0000in )
( T04  1.778mm 0.0700in 0.0000in 0.0000in )
( T05  3.302mm 0.1300in 0.0000in 0.0000in )
(Metric Mode)
G21
(Absolute Coordinates)
G90
G0 Z50.000000 
G0 X0.000000 Y0.000000 
M3
G4 P0
M4
G0 Z12.700000 
M6 T01  ; 0.800000 
G0 Z1.000000 
M3
G4 P0
G0 Z1.000000
G0 X6.350000 Y8.890000 
G1 Z-1.650000 F144   
G1 Z1.000000
(R1.000000  P1.000000)
G0 X6.350000 Y11.430000 
G1 Z-1.650000 F144   
G0 Z1.000000 
G0 X6.350000 Y13.970000 
G1 Z-1.650000 F144   
G0 Z1.000000 
G0 X6.350000 Y16.510000 
G1 Z-1.650000 F144   
G0 Z1.000000 
G0 X6.350000 Y19.050000 
G1 Z-1.650000 F144   
G0 Z1.000000 
G0 X6.350000 Y21.590000 
G1 Z-1.650000 F144   
G0 Z1.000000 
G0 X6.350000 Y24.130000 
G1 Z-1.650000 F144   
G0 Z1.000000 
G0 X6.350000 Y26.670000 
G1 Z-1.650000 F144   
G0 Z1.000000 
G0 X6.350000 Y29.210000 
G1 Z-1.650000 F144   
G0 Z1.000000 
G0 X6.350000 Y31.750000 
G1 Z-1.650000 F144   
G0 Z1.000000 
G0 X6.350000 Y34.290000 
G1 Z-1.650000 F144   
G0 Z1.000000 
G0 X6.350000 Y36.830000 
G1 Z-1.650000 F144   
G0 Z1.000000 
G0 X6.350000 Y39.370000 
G1 Z-1.650000 F144   
G0 Z1.000000 
G0 X6.350000 Y41.910000 
G1 Z-1.650000 F144   
G0 Z1.000000 
G0 X6.350000 Y44.450000 
G1 Z-1.650000 F144   
G0 Z1.000000 
G0 X21.590000 Y44.450000 
G1 Z-1.650000 F144   
G0 Z1.000000 
G0 X21.590000 Y41.910000 
G1 Z-1.650000 F144   
G0 Z1.000000 
G0 X21.590000 Y39.370000 
G1 Z-1.650000 F144   
G0 Z1.000000 
G0 X21.590000 Y36.830000 
G1 Z-1.650000 F144   
G0 Z1.000000 
G0 X21.590000 Y34.290000 
G1 Z-1.650000 F144   
G0 Z1.000000 
G0 X21.590000 Y31.750000 
G1 Z-1.650000 F144   
G0 Z1.000000 
G0 X21.590000 Y29.210000 
G1 Z-1.650000 F144   
G0 Z1.000000 
G0 X21.590000 Y26.670000 
G1 Z-1.650000 F144   
G0 Z1.000000 
G0 X21.590000 Y24.130000 
G1 Z-1.650000 F144   
G0 Z1.000000 
G0 X21.590000 Y21.590000 
G1 Z-1.650000 F144   
G0 Z1.000000 
G0 X21.590000 Y19.050000 
G1 Z-1.650000 F144   
G0 Z1.000000 
G0 X21.590000 Y16.510000 
G1 Z-1.650000 F144   
G0 Z1.000000 
G0 X21.590000 Y13.970000 
G1 Z-1.650000 F144   
G0 Z1.000000 
G0 X21.590000 Y11.430000 
G1 Z-1.650000 F144   
G0 Z1.000000 
G0 X21.590000 Y8.890000 
G1 Z-1.650000 F144   
G0 Z1.000000 
M4
G0 Z12.700000 
G0 X0.000000 Y0.000000 
M6 T02  ; 0.812800 
G0 Z1.000000 
M3
G4 P0
G0 Z1.000000
G0 X3.810000 Y73.660000 
G1 Z-1.650000 F144   
G1 Z1.000000
(R1.000000  P1.000000)
G0 X3.810000 Y81.280000 
G1 Z-1.650000 F144   
G0 Z1.000000 
G0 X30.480000 Y81.280000 
G1 Z-1.650000 F144   
G0 Z1.000000 
G0 X30.480000 Y73.660000 
G1 Z-1.650000 F144   
G0 Z1.000000 
G0 X29.210000 Y31.750000 
G1 Z-1.650000 F144   
G0 Z1.000000 
G0 X34.290000 Y31.750000 
G1 Z-1.650000 F144   
G0 Z1.000000 
G0 X34.290000 Y20.320000 
G1 Z-1.650000 F144   
G0 Z1.000000 
G0 X29.210000 Y20.320000 
G1 Z-1.650000 F144   
G0 Z1.000000 
M4
G0 Z12.700000 
G0 X0.000000 Y0.000000 
M6 T03  ; 1.016000 
G0 Z1.000000 
M3
G4 P0
G0 Z1.000000
G0 X7.899400 Y74.218800 
G1 Z-1.650000 F144   
G1 Z1.000000
(R1.000000  P1.000000)
G0 X12.420600 Y74.218800 
G1 Z-1.650000 F144   
G0 Z1.000000 
G0 X12.420600 Y80.721200 
G1 Z-1.650000 F144   
G0 Z1.000000 
G0 X7.899400 Y80.721200 
G1 Z-1.650000 F144   
G0 Z1.000000 
G0 X21.869400 Y80.721200 
G1 Z-1.650000 F144   
G0 Z1.000000 
G0 X26.390600 Y80.721200 
G1 Z-1.650000 F144   
G0 Z1.000000 
G0 X26.390600 Y74.218800 
G1 Z-1.650000 F144   
G0 Z1.000000 
G0 X21.869400 Y74.218800 
G1 Z-1.650000 F144   
G0 Z1.000000 
G0 X24.130000 Y54.610000 
G1 Z-1.650000 F144   
G0 Z1.000000 
G0 X26.670000 Y54.610000 
G1 Z-1.650000 F144   
G0 Z1.000000 
G0 X29.210000 Y54.610000 
G1 Z-1.650000 F144   
G0 Z1.000000 
G0 X31.750000 Y44.450000 
G1 Z-1.650000 F144   
G0 Z1.000000 
G0 X34.290000 Y44.450000 
G1 Z-1.650000 F144   
G0 Z1.000000 
G0 X16.510000 Y54.610000 
G1 Z-1.650000 F144   
G0 Z1.000000 
G0 X13.970000 Y54.610000 
G1 Z-1.650000 F144   
G0 Z1.000000 
G0 X11.430000 Y54.610000 
G1 Z-1.650000 F144   
G0 Z1.000000 
G0 X8.890000 Y54.610000 
G1 Z-1.650000 F144   
G0 Z1.000000 
G0 X29.210000 Y11.430000 
G1 Z-1.650000 F144   
G0 Z1.000000 
G0 X29.210000 Y8.890000 
G1 Z-1.650000 F144   
G0 Z1.000000 
G0 X29.210000 Y6.350000 
G1 Z-1.650000 F144   
G0 Z1.000000 
M4
G0 Z12.700000 
G0 X0.000000 Y0.000000 
M6 T04  ; 1.778000 
G0 Z1.000000 
M3
G4 P0
G0 Z1.000000
G0 X6.350000 Y6.350000 
G1 Z-1.650000 F144   
G1 Z1.000000
(R1.000000  P1.000000)
G0 X21.590000 Y6.350000 
G1 Z-1.650000 F144   
G0 Z1.000000 
G0 X21.590000 Y46.990000 
G1 Z-1.650000 F144   
G0 Z1.000000 
G0 X6.350000 Y46.990000 
G1 Z-1.650000 F144   
G0 Z1.000000 
M4
G0 Z12.700000 
G0 X0.000000 Y0.000000 
M6 T05  ; 3.302000 
G0 Z1.000000 
M3
G4 P0
G0 Z1.000000
G0 X14.224000 Y8.890000 
G1 Z-1.650000 F144   
G1 Z1.000000
(R1.000000  P1.000000)
T01 
G0 Z50.000000 
M4
G0 X0 Y0
